ziyutum/digitaltwinMA/digitaltwin/CSClient/data_export/valid_input.csv
ts_in,ts_out,PositionJoint1,PositionJoint2,PositionJoint3,PositionJoint4,PositionJoint5,PositionJoint6,PositionJoint7,GripperClosingWidth,GripperOpeningWidht
2024-03-22 16:57:25.0872720,2024-03-22 16:57:25.0959856,0.331236,-0.413186,-0.520668,-2.245140,-0.216889,1.924323,0.631607,0.010000000000000,0.010000
2024-03-22 16:57:25.0994913,2024-03-22 16:57:25.0995577,0.328375,-0.406659,-0.520728,-2.240912,-0.213488,1.926198,0.626967,0.010000000000000,0.010000
2024-03-22 16:57:25.1075879,2024-03-22 16:57:25.1076350,0.326953,-0.403263,-0.520729,-2.238769,-0.211807,1.927167,0.624620,0.010000000000000,0.010000
2024-03-22 16:57:25.1197555,2024-03-22 16:57:25.1198124,0.325065,-0.398665,-0.520721,-2.235921,-0.209534,1.928421,0.621420,0.010000000000000,0.010000
2024-03-22 16:57:25.1278591,2024-03-22 16:57:25.1278997,0.323815,-0.395617,-0.520707,-2.233972,-0.207952,1.929251,0.619268,0.010000000000000,0.010000
2024-03-22 16:57:25.1400140,2024-03-22 16:57:25.1400621,0.321915,-0.391132,-0.520676,-2.230998,-0.205701,1.930498,0.616024,0.010000000000000,0.010000
2024-03-22 16:57:25.1481251,2024-03-22 16:57:25.1481730,0.320619,-0.388147,-0.520646,-2.228978,-0.204155,1.931337,0.613873,0.010000000000000,0.010000
2024-03-22 16:57:25.1602813,2024-03-22 16:57:25.1603237,0.318642,-0.383634,-0.520614,-2.225937,-0.201739,1.932640,0.610651,0.010000000000000,0.010000
2024-03-22 16:57:25.1683891,2024-03-22 16:57:25.1684377,0.317346,-0.380580,-0.520606,-2.223896,-0.200117,1.933491,0.608473,0.010000000000000,0.010000
2024-03-22 16:57:25.1805523,2024-03-22 16:57:25.1805923,0.315230,-0.375460,-0.520608,-2.220618,-0.197545,1.934856,0.604939,0.010000000000000,0.010000
2024-03-22 16:57:25.1886557,2024-03-22 16:57:25.1886960,0.314084,-0.372645,-0.520617,-2.218889,-0.196135,1.935594,0.603028,0.010000000000000,0.010000
2024-03-22 16:57:25.2008173,2024-03-22 16:57:25.2008691,0.311925,-0.367482,-0.520649,-2.215667,-0.193449,1.936888,0.599464,0.010000000000000,0.010000
2024-03-22 16:57:25.2089254,2024-03-22 16:57:25.2089665,0.310553,-0.364331,-0.520674,-2.213648,-0.191815,1.937696,0.597241,0.010000000000000,0.010000
2024-03-22 16:57:25.2210516,2024-03-22 16:57:25.2210987,0.308494,-0.359587,-0.520698,-2.210525,-0.189395,1.938976,0.593893,0.010000000000000,0.010000
2024-03-22 16:57:25.2291154,2024-03-22 16:57:25.2291602,0.307087,-0.356413,-0.520702,-2.208365,-0.187731,1.939856,0.591676,0.010000000000000,0.010000
2024-03-22 16:57:25.2391879,2024-03-22 16:57:25.2392352,0.305030,-0.351535,-0.520692,-2.205029,-0.185247,1.941229,0.588393,0.010000000000000,0.010000
2024-03-22 16:57:25.2472816,2024-03-22 16:57:25.2473410,0.303689,-0.348226,-0.520694,-2.202822,-0.183578,1.942126,0.586168,0.010000000000000,0.010000
2024-03-22 16:57:25.2593924,2024-03-22 16:57:25.2594257,0.301856,-0.343686,-0.520677,-2.199840,-0.181225,1.943314,0.582995,0.010000000000000,0.010000
2024-03-22 16:57:25.2674742,2024-03-22 16:57:25.2675564,0.300510,-0.340433,-0.520664,-2.197690,-0.179476,1.944156,0.580699,0.010000000000000,0.010000
2024-03-22 16:57:25.2795899,2024-03-22 16:57:25.2796367,0.298468,-0.335542,-0.520637,-2.194458,-0.176838,1.945379,0.577271,0.010000000000000,0.010000
2024-03-22 16:57:25.2876675,2024-03-22 16:57:25.2877132,0.297268,-0.332666,-0.520609,-2.192583,-0.175262,1.946061,0.575255,0.010000000000000,0.010000
2024-03-22 16:57:25.2998017,2024-03-22 16:57:25.2998524,0.294998,-0.327209,-0.520537,-2.189047,-0.172364,1.947431,0.571528,0.010000000000000,0.010000
2024-03-22 16:57:25.3078508,2024-03-22 16:57:25.3078761,0.293624,-0.323763,-0.520493,-2.186849,-0.170608,1.948313,0.569227,0.010000000000000,0.010000
2024-03-22 16:57:25.3199863,2024-03-22 16:57:25.3200286,0.291578,-0.318542,-0.520452,-2.183534,-0.167906,1.949615,0.565783,0.010000000000000,0.010000
2024-03-22 16:57:25.3280494,2024-03-22 16:57:25.3280847,0.290231,-0.315111,-0.520432,-2.181265,-0.166135,1.950522,0.563427,0.010000000000000,0.010000
2024-03-22 16:57:25.3402331,2024-03-22 16:57:25.3402764,0.288139,-0.310004,-0.520407,-2.177796,-0.163423,1.951847,0.559889,0.010000000000000,0.010000
2024-03-22 16:57:25.3483107,2024-03-22 16:57:25.3483562,0.286707,-0.306618,-0.520417,-2.175450,-0.161535,1.952751,0.557584,0.010000000000000,0.010000
2024-03-22 16:57:25.3604157,2024-03-22 16:57:25.3604434,0.284346,-0.301044,-0.520423,-2.171662,-0.158525,1.954131,0.553844,0.010000000000000,0.010000
2024-03-22 16:57:25.3686076,2024-03-22 16:57:25.3686593,0.282903,-0.297533,-0.520421,-2.169352,-0.156662,1.954958,0.551502,0.010000000000000,0.010000
2024-03-22 16:57:25.3807474,2024-03-22 16:57:25.3808038,0.280748,-0.292165,-0.520429,-2.165961,-0.153777,1.956179,0.547997,0.010000000000000,0.010000
2024-03-22 16:57:25.3887974,2024-03-22 16:57:25.3888180,0.279676,-0.289503,-0.520428,-2.164261,-0.152384,1.956775,0.546230,0.010000000000000,0.010000
2024-03-22 16:57:25.4010156,2024-03-22 16:57:25.4010832,0.277164,-0.283315,-0.520439,-2.160242,-0.149147,1.958258,0.542036,0.010000000000000,0.010000
2024-03-22 16:57:25.4091501,2024-03-22 16:57:25.4091848,0.275706,-0.279793,-0.520442,-2.157875,-0.147266,1.959134,0.539641,0.010000000000000,0.010000
2024-03-22 16:57:25.4192326,2024-03-22 16:57:25.4192888,0.273520,-0.274428,-0.520418,-2.154186,-0.144443,1.960447,0.536018,0.010000000000000,0.010000
2024-03-22 16:57:25.4273932,2024-03-22 16:57:25.4274350,0.271926,-0.270323,-0.520382,-2.151396,-0.142235,1.961478,0.533364,0.010000000000000,0.010000
2024-03-22 16:57:25.4396189,2024-03-22 16:57:25.4396787,0.270161,-0.265783,-0.520296,-2.148313,-0.139804,1.962583,0.530389,0.010000000000000,0.010000
2024-03-22 16:57:25.4477534,2024-03-22 16:57:25.4478037,0.268736,-0.262182,-0.520215,-2.145884,-0.137841,1.963407,0.527995,0.010000000000000,0.010000
2024-03-22 16:57:25.4600090,2024-03-22 16:57:25.4600611,0.266581,-0.256795,-0.520110,-2.142263,-0.134850,1.964660,0.524410,0.010000000000000,0.010000
2024-03-22 16:57:25.4681809,2024-03-22 16:57:25.4682232,0.265142,-0.253173,-0.520068,-2.139853,-0.132866,1.965475,0.522012,0.010000000000000,0.010000
2024-03-22 16:57:25.4804266,2024-03-22 16:57:25.4805249,0.262971,-0.247662,-0.520046,-2.136219,-0.129878,1.966719,0.518425,0.010000000000000,0.010000
2024-03-22 16:57:25.4885176,2024-03-22 16:57:25.4885906,0.261349,-0.243392,-0.520024,-2.133476,-0.127621,1.967692,0.515705,0.010000000000000,0.010000
2024-03-22 16:57:25.5007689,2024-03-22 16:57:25.5008393,0.259190,-0.237738,-0.520010,-2.129752,-0.124671,1.968952,0.512071,0.010000000000000,0.010000
2024-03-22 16:57:25.5088454,2024-03-22 16:57:25.5089279,0.257733,-0.234020,-0.520013,-2.127203,-0.122584,1.969815,0.509709,0.010000000000000,0.010000
2024-03-22 16:57:25.5210907,2024-03-22 16:57:25.5211632,0.255512,-0.228480,-0.520011,-2.123345,-0.119467,1.971124,0.506097,0.010000000000000,0.010000
2024-03-22 16:57:25.5292020,2024-03-22 16:57:25.5292788,0.254004,-0.224790,-0.520011,-2.120769,-0.117413,1.971950,0.503615,0.010000000000000,0.010000
2024-03-22 16:57:25.5393081,2024-03-22 16:57:25.5393760,0.251762,-0.219141,-0.520020,-2.116965,-0.114304,1.973188,0.499946,0.010000000000000,0.010000
2024-03-22 16:57:25.5473801,2024-03-22 16:57:25.5474493,0.250122,-0.214826,-0.520006,-2.114171,-0.112038,1.974080,0.497212,0.010000000000000,0.010000
2024-03-22 16:57:25.5595557,2024-03-22 16:57:25.5596303,0.248313,-0.210055,-0.519981,-2.111059,-0.109475,1.975072,0.494166,0.010000000000000,0.010000
2024-03-22 16:57:25.5676847,2024-03-22 16:57:25.5677674,0.246857,-0.206242,-0.519944,-2.108537,-0.107400,1.975869,0.491736,0.010000000000000,0.010000
2024-03-22 16:57:25.5799360,2024-03-22 16:57:25.5800025,0.244638,-0.200515,-0.519843,-2.104622,-0.104286,1.977086,0.488126,0.010000000000000,0.010000
2024-03-22 16:57:25.5880421,2024-03-22 16:57:25.5881050,0.243147,-0.196668,-0.519777,-2.101937,-0.102166,1.977936,0.485672,0.010000000000000,0.010000
2024-03-22 16:57:25.6001766,2024-03-22 16:57:25.6002592,0.240927,-0.190808,-0.519657,-2.097879,-0.098983,1.979250,0.481965,0.010000000000000,0.010000
2024-03-22 16:57:25.6082724,2024-03-22 16:57:25.6083371,0.239497,-0.186927,-0.519569,-2.095218,-0.096809,1.980112,0.479536,0.010000000000000,0.010000
2024-03-22 16:57:25.6204280,2024-03-22 16:57:25.6204978,0.237186,-0.180696,-0.519450,-2.090968,-0.093303,1.981375,0.475652,0.010000000000000,0.010000
2024-03-22 16:57:25.6285261,2024-03-22 16:57:25.6285882,0.235734,-0.176843,-0.519385,-2.088371,-0.091141,1.982140,0.473222,0.010000000000000,0.010000
2024-03-22 16:57:25.6406852,2024-03-22 16:57:25.6407472,0.233516,-0.171015,-0.519353,-2.084451,-0.087909,1.983297,0.469577,0.010000000000000,0.010000
2024-03-22 16:57:25.6487965,2024-03-22 16:57:25.6488813,0.232027,-0.167062,-0.519354,-2.081820,-0.085763,1.984100,0.467149,0.010000000000000,0.010000
2024-03-22 16:57:25.6609092,2024-03-22 16:57:25.6609692,0.229797,-0.161045,-0.519335,-2.077812,-0.082422,1.985314,0.463447,0.010000000000000,0.010000
2024-03-22 16:57:25.6689772,2024-03-22 16:57:25.6690429,0.228318,-0.157091,-0.519328,-2.075071,-0.080226,1.986143,0.460978,0.010000000000000,0.010000
2024-03-22 16:57:25.6811138,2024-03-22 16:57:25.6812051,0.226099,-0.151238,-0.519323,-2.070909,-0.076870,1.987363,0.457277,0.010000000000000,0.010000
2024-03-22 16:57:25.6891757,2024-03-22 16:57:25.6892262,0.224610,-0.147331,-0.519318,-2.068144,-0.074648,1.988171,0.454858,0.010000000000000,0.010000
2024-03-22 16:57:25.6993302,2024-03-22 16:57:25.6993967,0.222356,-0.141400,-0.519307,-2.064038,-0.071429,1.989348,0.451206,0.010000000000000,0.010000
2024-03-22 16:57:25.7074920,2024-03-22 16:57:25.7075681,0.220680,-0.136838,-0.519280,-2.061046,-0.069001,1.990167,0.448483,0.010000000000000,0.010000
2024-03-22 16:57:25.7197549,2024-03-22 16:57:25.7198240,0.218829,-0.131781,-0.519202,-2.057737,-0.066304,1.991103,0.445447,0.010000000000000,0.010000
2024-03-22 16:57:25.7279423,2024-03-22 16:57:25.7280023,0.217360,-0.127760,-0.519122,-2.055054,-0.064032,1.991866,0.443013,0.010000000000000,0.010000
2024-03-22 16:57:25.7402144,2024-03-22 16:57:25.7402730,0.215126,-0.121756,-0.519013,-2.050843,-0.060638,1.993022,0.439375,0.010000000000000,0.010000
2024-03-22 16:57:25.7484012,2024-03-22 16:57:25.7484681,0.213642,-0.117711,-0.518943,-2.047935,-0.058389,1.993819,0.436967,0.010000000000000,0.010000
2024-03-22 16:57:25.7606712,2024-03-22 16:57:25.7607254,0.211278,-0.111113,-0.518855,-2.043280,-0.054683,1.995135,0.433034,0.010000000000000,0.010000
2024-03-22 16:57:25.7688591,2024-03-22 16:57:25.7689149,0.209835,-0.107055,-0.518797,-2.040482,-0.052411,1.995910,0.430655,0.010000000000000,0.010000
2024-03-22 16:57:25.7810757,2024-03-22 16:57:25.7811386,0.207648,-0.101060,-0.518706,-2.036391,-0.048983,1.996970,0.427030,0.010000000000000,0.010000
2024-03-22 16:57:25.7891794,2024-03-22 16:57:25.7892401,0.206167,-0.097043,-0.518684,-2.033637,-0.046738,1.997656,0.424557,0.010000000000000,0.010000
2024-03-22 16:57:25.7993125,2024-03-22 16:57:25.7994032,0.203939,-0.090944,-0.518690,-2.029419,-0.043263,1.998787,0.420938,0.010000000000000,0.010000
2024-03-22 16:57:25.8073895,2024-03-22 16:57:25.8074429,0.202258,-0.086243,-0.518679,-2.026212,-0.040663,1.999667,0.418228,0.010000000000000,0.010000
2024-03-22 16:57:25.8195443,2024-03-22 16:57:25.8195997,0.200427,-0.081057,-0.518666,-2.022591,-0.037755,2.000666,0.415222,0.010000000000000,0.010000
2024-03-22 16:57:25.8276376,2024-03-22 16:57:25.8276943,0.198967,-0.076965,-0.518659,-2.019680,-0.035438,2.001373,0.412822,0.010000000000000,0.010000
2024-03-22 16:57:25.8397887,2024-03-22 16:57:25.8398487,0.196766,-0.070912,-0.518610,-2.015380,-0.032038,2.002436,0.409272,0.010000000000000,0.010000
2024-03-22 16:57:25.8478945,2024-03-22 16:57:25.8479534,0.195283,-0.066869,-0.518567,-2.012521,-0.029736,2.003135,0.406854,0.010000000000000,0.010000
2024-03-22 16:57:25.8600496,2024-03-22 16:57:25.8601164,0.193087,-0.060626,-0.518463,-2.008285,-0.026339,2.004180,0.403234,0.010000000000000,0.010000
2024-03-22 16:57:25.8804727,2024-03-22 16:57:25.8805304,0.189461,-0.050165,-0.518248,-2.001219,-0.020478,2.005903,0.397367,0.010000000000000,0.010000
2024-03-22 16:57:25.8899405,2024-03-22 16:57:25.8899699,0.188020,-0.046033,-0.518181,-1.998294,-0.018084,2.006642,0.395006,0.010000000000000,0.010000
2024-03-22 16:57:25.8681437,2024-03-22 16:57:25.8972109,0.188020,-0.046033,-0.518181,-1.998294,-0.018084,2.006642,0.395006,0.010000000000000,0.010000
2024-03-22 16:57:25.9001051,2024-03-22 16:57:25.9001960,0.185681,-0.039341,-0.518078,-1.993374,-0.014247,2.007844,0.391180,0.010000000000000,0.010000
2024-03-22 16:57:25.9083200,2024-03-22 16:57:25.9083567,0.184066,-0.034642,-0.518012,-1.989982,-0.011592,2.008667,0.388533,0.010000000000000,0.010000
2024-03-22 16:57:25.9205776,2024-03-22 16:57:25.9206274,0.182289,-0.029396,-0.517927,-1.986339,-0.008676,2.009547,0.385574,0.010000000000000,0.010000
2024-03-22 16:57:25.9287330,2024-03-22 16:57:25.9287708,0.180665,-0.024712,-0.517868,-1.983159,-0.006049,2.010305,0.382907,0.010000000000000,0.010000
2024-03-22 16:57:25.9409464,2024-03-22 16:57:25.9410006,0.178486,-0.018504,-0.517844,-1.978890,-0.002457,2.011215,0.379346,0.010000000000000,0.010000
2024-03-22 16:57:25.9491172,2024-03-22 16:57:25.9491693,0.177006,-0.014346,-0.517857,-1.975973,-0.000079,2.011885,0.377034,0.010000000000000,0.010000
2024-03-22 16:57:25.9591731,2024-03-22 16:57:25.9592082,0.174795,-0.008015,-0.517857,-1.971485,0.003529,2.012967,0.373552,0.0100000000000000,0.010000
2024-03-22 16:57:25.9672434,2024-03-22 16:57:25.9672798,0.173379,-0.003778,-0.517841,-1.968421,0.005844,2.013670,0.371233,0.0100000000000000,0.010000
2024-03-22 16:57:25.9794243,2024-03-22 16:57:25.9794870,0.171398,0.001981,-0.517796,-1.964289,0.009032,2.014604,0.368064,0.0100000000000000,0.0100000
2024-03-22 16:57:25.9875310,2024-03-22 16:57:25.9875758,0.169949,0.006117,-0.517757,-1.961326,0.011334,2.015247,0.365769,0.0100000000000000,0.0100000
2024-03-22 16:57:25.9996568,2024-03-22 16:57:25.9997054,0.167764,0.012333,-0.517709,-1.956956,0.014892,2.016103,0.362345,0.0100000000000000,0.0100000
2024-03-22 16:57:26.0077138,2024-03-22 16:57:26.0077415,0.166336,0.016580,-0.517672,-1.954031,0.017279,2.016738,0.360038,0.0100000000000000,0.0100000
2024-03-22 16:57:26.0198528,2024-03-22 16:57:26.0198996,0.164195,0.023020,-0.517541,-1.949597,0.020880,2.017757,0.356616,0.0100000000000000,0.0100000
2024-03-22 16:57:26.0279141,2024-03-22 16:57:26.0279551,0.162793,0.027289,-0.517469,-1.946592,0.023304,2.018411,0.354345,0.0100000000000000,0.0100000
2024-03-22 16:57:26.0401654,2024-03-22 16:57:26.0402092,0.160691,0.033602,-0.517367,-1.941974,0.026952,2.019429,0.351023,0.0100000000000000,0.0100000
2024-03-22 16:57:26.0482355,2024-03-22 16:57:26.0482799,0.159283,0.037769,-0.517324,-1.938885,0.029357,2.020127,0.348740,0.0100000000000000,0.0100000
2024-03-22 16:57:26.0603661,2024-03-22 16:57:26.0604174,0.157013,0.044607,-0.517268,-1.933971,0.033156,2.021103,0.345018,0.0100000000000000,0.0100000
2024-03-22 16:57:26.0684378,2024-03-22 16:57:26.0684898,0.155630,0.048849,-0.517213,-1.931016,0.035593,2.021689,0.342783,0.0100000000000000,0.0100000
2024-03-22 16:57:26.0805616,2024-03-22 16:57:26.0806002,0.153507,0.055207,-0.517152,-1.926649,0.039219,2.022561,0.339434,0.0100000000000000,0.0100000
2024-03-22 16:57:26.0886431,2024-03-22 16:57:26.0887013,0.152093,0.059414,-0.517154,-1.923667,0.041672,2.023138,0.337209,0.0100000000000000,0.0100000
2024-03-22 16:57:26.1007780,2024-03-22 16:57:26.1008362,0.149947,0.065722,-0.517164,-1.919047,0.045235,2.024097,0.333895,0.0100000000000000,0.0100000
2024-03-22 16:57:26.1088880,2024-03-22 16:57:26.1089547,0.148523,0.069991,-0.517154,-1.915904,0.047609,2.024748,0.331726,0.0100000000000000,0.0100000
2024-03-22 16:57:26.1211122,2024-03-22 16:57:26.1211645,0.146459,0.076373,-0.517130,-1.911282,0.051158,2.025699,0.328393,0.0100000000000000,0.0100000
2024-03-22 16:57:26.1291818,2024-03-22 16:57:26.1292220,0.145069,0.080612,-0.517096,-1.908293,0.053538,2.026292,0.326182,0.0100000000000000,0.0100000
2024-03-22 16:57:26.1392553,2024-03-22 16:57:26.1393141,0.142978,0.086900,-0.517010,-1.903881,0.057127,2.027062,0.322915,0.0100000000000000,0.0100000
2024-03-22 16:57:26.1473190,2024-03-22 16:57:26.1473603,0.141406,0.091647,-0.516955,-1.900535,0.059869,2.027705,0.320536,0.0100000000000000,0.0100000
2024-03-22 16:57:26.1594404,2024-03-22 16:57:26.1594895,0.139700,0.097024,-0.516890,-1.896731,0.062935,2.028445,0.317876,0.0100000000000000,0.0100000
2024-03-22 16:57:26.1675002,2024-03-22 16:57:26.1675388,0.138343,0.101334,-0.516797,-1.893634,0.065349,2.029088,0.315725,0.0100000000000000,0.0100000
2024-03-22 16:57:26.1796072,2024-03-22 16:57:26.1796442,0.136319,0.107716,-0.516670,-1.888937,0.068976,2.030062,0.312521,0.0100000000000000,0.0100000
2024-03-22 16:57:26.1876638,2024-03-22 16:57:26.1876940,0.134987,0.111900,-0.516593,-1.885828,0.071354,2.030634,0.310396,0.0100000000000000,0.0100000
2024-03-22 16:57:26.1998754,2024-03-22 16:57:26.1999258,0.132973,0.118154,-0.516499,-1.881236,0.074985,2.031482,0.307206,0.0100000000000000,0.0100000
2024-03-22 16:57:26.2079936,2024-03-22 16:57:26.2080237,0.131636,0.122426,-0.516447,-1.878237,0.077371,2.031999,0.305089,0.0100000000000000,0.0100000
2024-03-22 16:57:26.2201319,2024-03-22 16:57:26.2201967,0.129637,0.128853,-0.516361,-1.873750,0.081017,2.032816,0.301930,0.0100000000000000,0.0100000
2024-03-22 16:57:26.2282037,2024-03-22 16:57:26.2282451,0.128284,0.133144,-0.516312,-1.870747,0.083412,2.033359,0.299854,0.0100000000000000,0.0100000
2024-03-22 16:57:26.2403161,2024-03-22 16:57:26.2403500,0.126248,0.139464,-0.516298,-1.866107,0.086936,2.034166,0.296778,0.0100000000000000,0.0100000
2024-03-22 16:57:26.2483914,2024-03-22 16:57:26.2484287,0.124709,0.144186,-0.516303,-1.862553,0.089559,2.034853,0.294450,0.0100000000000000,0.0100000
2024-03-22 16:57:26.2605179,2024-03-22 16:57:26.2605692,0.122696,0.150551,-0.516297,-1.857894,0.093155,2.035701,0.291395,0.0100000000000000,0.0100000
2024-03-22 16:57:26.2685857,2024-03-22 16:57:26.2686307,0.121377,0.154795,-0.516274,-1.854881,0.095554,2.036255,0.289339,0.0100000000000000,0.0100000
2024-03-22 16:57:26.2807189,2024-03-22 16:57:26.2807770,0.119383,0.161136,-0.516236,-1.850443,0.099128,2.036971,0.286335,0.0100000000000000,0.0100000
2024-03-22 16:57:26.2887713,2024-03-22 16:57:26.2887969,0.118026,0.165335,-0.516209,-1.847446,0.101543,2.037476,0.284318,0.0100000000000000,0.0100000
2024-03-22 16:57:26.3009051,2024-03-22 16:57:26.3009438,0.116024,0.171688,-0.516199,-1.842816,0.105171,2.038276,0.281318,0.0100000000000000,0.0100000
2024-03-22 16:57:26.3089764,2024-03-22 16:57:26.3090243,0.114726,0.175958,-0.516175,-1.839648,0.107575,2.038875,0.279301,0.0100000000000000,0.0100000
2024-03-22 16:57:26.3191202,2024-03-22 16:57:26.3191471,0.112789,0.182315,-0.516063,-1.834915,0.111067,2.039782,0.276366,0.0100000000000000,0.0100000
2024-03-22 16:57:26.3271964,2024-03-22 16:57:26.3272416,0.111502,0.186520,-0.515975,-1.831845,0.113485,2.040286,0.274442,0.0100000000000000,0.0100000
2024-03-22 16:57:26.3394288,2024-03-22 16:57:26.3394660,0.109905,0.191721,-0.515882,-1.828091,0.116472,2.040881,0.272031,0.0100000000000000,0.0100000
2024-03-22 16:57:26.3475060,2024-03-22 16:57:26.3475449,0.108452,0.196405,-0.515815,-1.824703,0.119148,2.041394,0.269801,0.0100000000000000,0.0100000
2024-03-22 16:57:26.3596622,2024-03-22 16:57:26.3597315,0.106569,0.202754,-0.515761,-1.820194,0.122690,2.042170,0.266871,0.0100000000000000,0.0100000
2024-03-22 16:57:26.3677272,2024-03-22 16:57:26.3677660,0.105290,0.207016,-0.515704,-1.817117,0.125005,2.042709,0.264958,0.0100000000000000,0.0100000
2024-03-22 16:57:26.3799267,2024-03-22 16:57:26.3799508,0.103383,0.213338,-0.515635,-1.812460,0.128516,2.043581,0.262094,0.0100000000000000,0.0100000
2024-03-22 16:57:26.3880145,2024-03-22 16:57:26.3880565,0.102107,0.217481,-0.515635,-1.809335,0.130832,2.044090,0.260203,0.0100000000000000,0.0100000
2024-03-22 16:57:26.4001238,2024-03-22 16:57:26.4001535,0.100195,0.223685,-0.515633,-1.804716,0.134374,2.044871,0.257387,0.0100000000000000,0.0100000
2024-03-22 16:57:26.4081715,2024-03-22 16:57:26.4081903,0.098768,0.228398,-0.515616,-1.801333,0.137025,2.045384,0.255311,0.0100000000000000,0.0100000
2024-03-22 16:57:26.4202968,2024-03-22 16:57:26.4203358,0.096876,0.234742,-0.515593,-1.796901,0.140605,2.046099,0.252562,0.0100000000000000,0.0100000
2024-03-22 16:57:26.4283513,2024-03-22 16:57:26.4283754,0.095612,0.238941,-0.515569,-1.793939,0.142953,2.046558,0.250710,0.0100000000000000,0.0100000
2024-03-22 16:57:26.4405544,2024-03-22 16:57:26.4405984,0.093717,0.245201,-0.515566,-1.789354,0.146476,2.047319,0.247897,0.0100000000000000,0.0100000
2024-03-22 16:57:26.4487077,2024-03-22 16:57:26.4487297,0.092469,0.249330,-0.515563,-1.786208,0.148771,2.047842,0.246075,0.0100000000000000,0.0100000
2024-03-22 16:57:26.4608755,2024-03-22 16:57:26.4609053,0.090639,0.255550,-0.515531,-1.781535,0.152253,2.048691,0.243418,0.0100000000000000,0.0100000
2024-03-22 16:57:26.4689808,2024-03-22 16:57:26.4690425,0.089440,0.259699,-0.515473,-1.778501,0.154584,2.049189,0.241674,0.0100000000000000,0.0100000
2024-03-22 16:57:26.4811585,2024-03-22 16:57:26.4811891,0.087630,0.265901,-0.515350,-1.774070,0.158065,2.049874,0.239018,0.0100000000000000,0.0100000
2024-03-22 16:57:26.4892610,2024-03-22 16:57:26.4892902,0.086409,0.270006,-0.515275,-1.771116,0.160426,2.050277,0.237263,0.0100000000000000,0.0100000
2024-03-22 16:57:26.4993670,2024-03-22 16:57:26.4994003,0.084454,0.276700,-0.515172,-1.766214,0.164099,2.051084,0.234448,0.0100000000000000,0.0100000
2024-03-22 16:57:26.5074733,2024-03-22 16:57:26.5074986,0.083271,0.280865,-0.515123,-1.763134,0.166359,2.051606,0.232721,0.0100000000000000,0.0100000
2024-03-22 16:57:26.5196392,2024-03-22 16:57:26.5196688,0.081825,0.286066,-0.515047,-1.759253,0.169142,2.052321,0.230519,0.0100000000000000,0.0100000
2024-03-22 16:57:26.5277422,2024-03-22 16:57:26.5277710,0.080656,0.290181,-0.514980,-1.756226,0.171465,2.052817,0.228795,0.0100000000000000,0.0100000
2024-03-22 16:57:26.5398980,2024-03-22 16:57:26.5399221,0.078903,0.296266,-0.514915,-1.751761,0.174889,2.053473,0.226243,0.0100000000000000,0.0100000
2024-03-22 16:57:26.5479642,2024-03-22 16:57:26.5479921,0.077747,0.300307,-0.514921,-1.748825,0.177143,2.053872,0.224540,0.0100000000000000,0.0100000
2024-03-22 16:57:26.5600736,2024-03-22 16:57:26.5600908,0.075986,0.306475,-0.514911,-1.744417,0.180579,2.054558,0.222023,0.0100000000000000,0.0100000
2024-03-22 16:57:26.5681389,2024-03-22 16:57:26.5681586,0.074808,0.310623,-0.514911,-1.741463,0.182839,2.055022,0.220398,0.0100000000000000,0.0100000
2024-03-22 16:57:26.5802577,2024-03-22 16:57:26.5802780,0.073040,0.316811,-0.514903,-1.736998,0.186282,2.055795,0.217954,0.0100000000000000,0.0100000
2024-03-22 16:57:26.5883260,2024-03-22 16:57:26.5883528,0.071701,0.321341,-0.514903,-1.733570,0.188758,2.056355,0.216101,0.0100000000000000,0.0100000
2024-03-22 16:57:26.6004618,2024-03-22 16:57:26.6004937,0.069953,0.327318,-0.514923,-1.729020,0.192152,2.057140,0.213686,0.0100000000000000,0.0100000
2024-03-22 16:57:26.6085329,2024-03-22 16:57:26.6085662,0.068808,0.331336,-0.514924,-1.726050,0.194397,2.057596,0.212068,0.0100000000000000,0.0100000
2024-03-22 16:57:26.6206417,2024-03-22 16:57:26.6206575,0.067095,0.337404,-0.514896,-1.721682,0.197770,2.058295,0.209681,0.0100000000000000,0.0100000
2024-03-22 16:57:26.6287009,2024-03-22 16:57:26.6287126,0.065944,0.341458,-0.514869,-1.718835,0.199995,2.058701,0.208127,0.0100000000000000,0.0100000
2024-03-22 16:57:26.6409700,2024-03-22 16:57:26.6409996,0.064243,0.347497,-0.514827,-1.714531,0.203250,2.059399,0.205783,0.0100000000000000,0.0100000
2024-03-22 16:57:26.6490947,2024-03-22 16:57:26.6491176,0.063123,0.351476,-0.514813,-1.711573,0.205444,2.059852,0.204231,0.0100000000000000,0.0100000
2024-03-22 16:57:26.6592186,2024-03-22 16:57:26.6592441,0.061487,0.357440,-0.514783,-1.707049,0.208659,2.060642,0.201895,0.0100000000000000,0.0100000
2024-03-22 16:57:26.6673555,2024-03-22 16:57:26.6684270,0.060397,0.361428,-0.514724,-1.704051,0.210857,2.061157,0.200371,0.0100000000000000,0.0100000
2024-03-22 16:57:26.6795619,2024-03-22 16:57:26.6795903,0.058907,0.366907,-0.514610,-1.700082,0.213859,2.061825,0.198302,0.0100000000000000,0.0100000
2024-03-22 16:57:26.6876925,2024-03-22 16:57:26.6877277,0.057829,0.370876,-0.514540,-1.697240,0.216058,2.062239,0.196860,0.0100000000000000,0.0100000
2024-03-22 16:57:26.6998623,2024-03-22 16:57:26.6998912,0.056221,0.376781,-0.514472,-1.693004,0.219428,2.062867,0.194666,0.0100000000000000,0.0100000
2024-03-22 16:57:26.7079964,2024-03-22 16:57:26.7080126,0.055152,0.380715,-0.514468,-1.690147,0.221594,2.063331,0.193173,0.0100000000000000,0.0100000
2024-03-22 16:57:26.7201961,2024-03-22 16:57:26.7202148,0.053566,0.386697,-0.514458,-1.685776,0.224842,2.064096,0.190885,0.0100000000000000,0.0100000
2024-03-22 16:57:26.7283102,2024-03-22 16:57:26.7283247,0.052520,0.390684,-0.514449,-1.682847,0.226944,2.064622,0.189433,0.0100000000000000,0.0100000
2024-03-22 16:57:26.7405019,2024-03-22 16:57:26.7405176,0.050827,0.397048,-0.514431,-1.678159,0.230412,2.065443,0.187131,0.0100000000000000,0.0100000
2024-03-22 16:57:26.7486137,2024-03-22 16:57:26.7486290,0.049771,0.400888,-0.514435,-1.675330,0.232572,2.065891,0.185713,0.0100000000000000,0.0100000
2024-03-22 16:57:26.7607949,2024-03-22 16:57:26.7608120,0.048189,0.406631,-0.514449,-1.671099,0.235753,2.066564,0.183582,0.0100000000000000,0.0100000
2024-03-22 16:57:26.7688954,2024-03-22 16:57:26.7689145,0.047132,0.410507,-0.514448,-1.668307,0.237922,2.067030,0.182192,0.0100000000000000,0.0100000
2024-03-22 16:57:26.7810591,2024-03-22 16:57:26.7810767,0.045553,0.416357,-0.514430,-1.664160,0.241038,2.067753,0.180113,0.0100000000000000,0.0100000
2024-03-22 16:57:26.7891283,2024-03-22 16:57:26.7891449,0.044508,0.420279,-0.514421,-1.661389,0.243066,2.068244,0.178748,0.0100000000000000,0.0100000
2024-03-22 16:57:26.7991991,2024-03-22 16:57:26.7992219,0.042956,0.426028,-0.514428,-1.657189,0.246143,2.068973,0.176756,0.0100000000000000,0.0100000
2024-03-22 16:57:26.8073041,2024-03-22 16:57:26.8073218,0.041817,0.430275,-0.514439,-1.653970,0.248448,2.069549,0.175285,0.0100000000000000,0.0100000
2024-03-22 16:57:26.8194313,2024-03-22 16:57:26.8194504,0.040570,0.434984,-0.514432,-1.650425,0.251103,2.070178,0.173612,0.0100000000000000,0.0100000
2024-03-22 16:57:26.8274932,2024-03-22 16:57:26.8275119,0.039585,0.438763,-0.514416,-1.647655,0.253157,2.070673,0.172266,0.0100000000000000,0.0100000
2024-03-22 16:57:26.8396154,2024-03-22 16:57:26.8396354,0.038139,0.444513,-0.514375,-1.643608,0.256237,2.071348,0.170243,0.0100000000000000,0.0100000
2024-03-22 16:57:26.8476828,2024-03-22 16:57:26.8477053,0.037168,0.448351,-0.514329,-1.640958,0.258325,2.071803,0.168958,0.0100000000000000,0.0100000
2024-03-22 16:57:26.8598029,2024-03-22 16:57:26.8598220,0.035688,0.453996,-0.514250,-1.636949,0.261393,2.072485,0.167067,0.0100000000000000,0.0100000
2024-03-22 16:57:26.8678681,2024-03-22 16:57:26.8678839,0.034724,0.457738,-0.514221,-1.634201,0.263468,2.072995,0.165841,0.0100000000000000,0.0100000
2024-03-22 16:57:26.8799906,2024-03-22 16:57:26.8800109,0.033321,0.463364,-0.514184,-1.629995,0.266425,2.073755,0.163992,0.0100000000000000,0.0100000
2024-03-22 16:57:26.8881318,2024-03-22 16:57:26.8881563,0.032398,0.467090,-0.514136,-1.627222,0.268389,2.074326,0.162757,0.0100000000000000,0.0100000
2024-03-22 16:57:26.9002140,2024-03-22 16:57:26.9002324,0.031020,0.472684,-0.514055,-1.623214,0.271458,2.075079,0.160902,0.0100000000000000,0.0100000
2024-03-22 16:57:26.9082792,2024-03-22 16:57:26.9082930,0.029988,0.476809,-0.514002,-1.620262,0.273693,2.075609,0.159517,0.0100000000000000,0.0100000
2024-03-22 16:57:26.9204065,2024-03-22 16:57:26.9204218,0.028731,0.481832,-0.513985,-1.616652,0.276459,2.076239,0.157860,0.0100000000000000,0.0100000
2024-03-22 16:57:26.9284704,2024-03-22 16:57:26.9284844,0.027682,0.485948,-0.513991,-1.613711,0.278680,2.076791,0.156560,0.0100000000000000,0.0100000
2024-03-22 16:57:26.9405970,2024-03-22 16:57:26.9406123,0.026309,0.491485,-0.514003,-1.609777,0.281560,2.077592,0.154800,0.0100000000000000,0.0100000
2024-03-22 16:57:26.9487140,2024-03-22 16:57:26.9487411,0.025396,0.495179,-0.513993,-1.607165,0.283492,2.078123,0.153616,0.0100000000000000,0.0100000
2024-03-22 16:57:26.9608804,2024-03-22 16:57:26.9609025,0.024041,0.500662,-0.513985,-1.603255,0.286353,2.078913,0.151825,0.0100000000000000,0.0100000
2024-03-22 16:57:26.9689943,2024-03-22 16:57:26.9690130,0.023128,0.504241,-0.513990,-1.600646,0.288286,2.079383,0.150679,0.0100000000000000,0.0100000
2024-03-22 16:57:26.9791199,2024-03-22 16:57:26.9791426,0.021764,0.509550,-0.514014,-1.596779,0.291207,2.080111,0.149003,0.0100000000000000,0.0100000
2024-03-22 16:57:26.9872337,2024-03-22 16:57:26.9872521,0.020863,0.513113,-0.514029,-1.594208,0.293131,2.080613,0.147881,0.0100000000000000,0.0100000
2024-03-22 16:57:26.9994536,2024-03-22 16:57:26.9994754,0.019641,0.518016,-0.514044,-1.590738,0.295805,2.081326,0.146341,0.0100000000000000,0.0100000
2024-03-22 16:57:27.0076423,2024-03-22 16:57:27.0076622,0.018746,0.521623,-0.514027,-1.588278,0.297756,2.081831,0.145222,0.0100000000000000,0.0100000
2024-03-22 16:57:27.0199252,2024-03-22 16:57:27.0199496,0.017428,0.527019,-0.514016,-1.584605,0.300582,2.082615,0.143598,0.0100000000000000,0.0100000
2024-03-22 16:57:27.0280952,2024-03-22 16:57:27.0281211,0.016563,0.530535,-0.514021,-1.582108,0.302481,2.083111,0.142549,0.0100000000000000,0.0100000
2024-03-22 16:57:27.0403689,2024-03-22 16:57:27.0403937,0.015272,0.535753,-0.514035,-1.578279,0.305242,2.083944,0.140954,0.0100000000000000,0.0100000
2024-03-22 16:57:27.0487844,2024-03-22 16:57:27.0488079,0.014442,0.539205,-0.514037,-1.575702,0.307059,2.084495,0.139886,0.0100000000000000,0.0100000
2024-03-22 16:57:27.0610200,2024-03-22 16:57:27.0610497,0.013142,0.544797,-0.514005,-1.571639,0.310125,2.085423,0.138150,0.0100000000000000,0.0100000
2024-03-22 16:57:27.0691993,2024-03-22 16:57:27.0692353,0.012345,0.548286,-0.513986,-1.569219,0.311928,2.085905,0.137124,0.0100000000000000,0.0100000
2024-03-22 16:57:27.0793408,2024-03-22 16:57:27.0793660,0.011158,0.553494,-0.513946,-1.565677,0.314697,2.086657,0.135638,0.0100000000000000,0.0100000
2024-03-22 16:57:27.0875173,2024-03-22 16:57:27.0875508,0.010272,0.557339,-0.513927,-1.563009,0.316806,2.087206,0.134485,0.0100000000000000,0.0100000
2024-03-22 16:57:27.0997522,2024-03-22 16:57:27.0997782,0.009288,0.561585,-0.513922,-1.560052,0.319048,2.087889,0.133209,0.0100000000000000,0.0100000
2024-03-22 16:57:27.1078991,2024-03-22 16:57:27.1079209,0.008518,0.565001,-0.513916,-1.557652,0.320803,2.088460,0.132208,0.0100000000000000,0.0100000
2024-03-22 16:57:27.1200988,2024-03-22 16:57:27.1201195,0.007359,0.570073,-0.513889,-1.554040,0.323462,2.089342,0.130759,0.0100000000000000,0.0100000
2024-03-22 16:57:27.1281984,2024-03-22 16:57:27.1282135,0.006606,0.573460,-0.513868,-1.551647,0.325173,2.089931,0.129797,0.0100000000000000,0.0100000
2024-03-22 16:57:27.1403954,2024-03-22 16:57:27.1404214,0.005456,0.578502,-0.513813,-1.548129,0.327826,2.090734,0.128369,0.0100000000000000,0.0100000
2024-03-22 16:57:27.1485523,2024-03-22 16:57:27.1485797,0.004609,0.582195,-0.513788,-1.545533,0.329869,2.091363,0.127304,0.0100000000000000,0.0100000
2024-03-22 16:57:27.1607864,2024-03-22 16:57:27.1608081,0.003478,0.587102,-0.513806,-1.542096,0.332472,2.092137,0.125896,0.0100000000000000,0.0100000
2024-03-22 16:57:27.1689600,2024-03-22 16:57:27.1689878,0.002729,0.590383,-0.513825,-1.539801,0.334205,2.092704,0.124946,0.0100000000000000,0.0100000
2024-03-22 16:57:27.1791043,2024-03-22 16:57:27.1791246,0.001603,0.595319,-0.513833,-1.536445,0.336853,2.093533,0.123566,0.0100000000000000,0.0100000
2024-03-22 16:57:27.1871691,2024-03-22 16:57:27.1871834,0.000848,0.598632,-0.513822,-1.534253,0.338570,2.094090,0.122662,0.0100000000000000,0.0100000
2024-03-22 16:57:27.1993056,2024-03-22 16:57:27.1993264,-0.000076,0.602779,-0.513815,-1.531523,0.340733,2.094775,0.121541,0.0100000000000000,0.010000
2024-03-22 16:57:27.2074036,2024-03-22 16:57:27.2074155,-0.000809,0.606050,-0.513812,-1.529338,0.342444,2.095351,0.120648,0.0100000000000000,0.010000
2024-03-22 16:57:27.2196589,2024-03-22 16:57:27.2196904,-0.001986,0.611240,-0.513833,-1.525725,0.345112,2.096331,0.119239,0.0100000000000000,0.010000
2024-03-22 16:57:27.2278423,2024-03-22 16:57:27.2278610,-0.002700,0.614380,-0.513855,-1.523477,0.346785,2.096905,0.118391,0.0100000000000000,0.010000
2024-03-22 16:57:27.2401105,2024-03-22 16:57:27.2401337,-0.003731,0.619064,-0.513910,-1.520172,0.349388,2.097815,0.117128,0.0100000000000000,0.010000
2024-03-22 16:57:27.2482929,2024-03-22 16:57:27.2483217,-0.004415,0.622211,-0.513910,-1.518003,0.351032,2.098408,0.116252,0.0100000000000000,0.010000
2024-03-22 16:57:27.2605649,2024-03-22 16:57:27.2605883,-0.005525,0.627347,-0.513901,-1.514577,0.353713,2.099318,0.114842,0.0100000000000000,0.010000
2024-03-22 16:57:27.2687013,2024-03-22 16:57:27.2687226,-0.006212,0.630525,-0.513882,-1.512514,0.355421,2.099889,0.113966,0.0100000000000000,0.010000
2024-03-22 16:57:27.2808680,2024-03-22 16:57:27.2809016,-0.007216,0.635196,-0.513879,-1.509454,0.357819,2.100703,0.112699,0.0100000000000000,0.010000
2024-03-22 16:57:27.2890253,2024-03-22 16:57:27.2890399,-0.007885,0.638269,-0.513891,-1.507392,0.359381,2.101312,0.111911,0.0100000000000000,0.010000
2024-03-22 16:57:27.2991273,2024-03-22 16:57:27.2991475,-0.008866,0.642853,-0.513907,-1.504277,0.361822,2.102243,0.110730,0.0100000000000000,0.010000
2024-03-22 16:57:27.3072461,2024-03-22 16:57:27.3072627,-0.009495,0.645868,-0.513911,-1.502194,0.363395,2.102844,0.109928,0.0100000000000000,0.010000
2024-03-22 16:57:27.3194054,2024-03-22 16:57:27.3194252,-0.010344,0.650036,-0.513882,-1.499341,0.365520,2.103730,0.108825,0.0100000000000000,0.010000
2024-03-22 16:57:27.3275058,2024-03-22 16:57:27.3275263,-0.010944,0.653093,-0.513871,-1.497309,0.367102,2.104308,0.108042,0.0100000000000000,0.010000
2024-03-22 16:57:27.3396696,2024-03-22 16:57:27.3396863,-0.011836,0.657618,-0.513850,-1.494357,0.369505,2.105217,0.106873,0.0100000000000000,0.010000
2024-03-22 16:57:27.3477819,2024-03-22 16:57:27.3478011,-0.012433,0.660570,-0.513841,-1.492420,0.371071,2.105792,0.106106,0.0100000000000000,0.010000
2024-03-22 16:57:27.3599682,2024-03-22 16:57:27.3600174,-0.013300,0.664979,-0.513852,-1.489526,0.373458,2.106667,0.104970,0.0100000000000000,0.010000
2024-03-22 16:57:27.3680681,2024-03-22 16:57:27.3680850,-0.013884,0.667880,-0.513857,-1.487568,0.375074,2.107320,0.104220,0.0100000000000000,0.010000
2024-03-22 16:57:27.3803007,2024-03-22 16:57:27.3803167,-0.014756,0.672264,-0.513842,-1.484693,0.377371,2.108279,0.103104,0.0100000000000000,0.010000
2024-03-22 16:57:27.3884084,2024-03-22 16:57:27.3884222,-0.015338,0.675208,-0.513837,-1.482793,0.378870,2.108931,0.102374,0.0100000000000000,0.010000
2024-03-22 16:57:27.4006113,2024-03-22 16:57:27.4006241,-0.016254,0.680015,-0.513817,-1.479786,0.381339,2.109962,0.101203,0.0100000000000000,0.010000
2024-03-22 16:57:27.4086814,2024-03-22 16:57:27.4086943,-0.016821,0.682925,-0.513806,-1.477939,0.382814,2.110551,0.100472,0.0100000000000000,0.010000
2024-03-22 16:57:27.4208791,2024-03-22 16:57:27.4209004,-0.017651,0.687161,-0.513801,-1.475193,0.385000,2.111477,0.099404,0.0100000000000000,0.010000
2024-03-22 16:57:27.4289780,2024-03-22 16:57:27.4289906,-0.018211,0.689962,-0.513811,-1.473306,0.386501,2.112118,0.098719,0.0100000000000000,0.010000
2024-03-22 16:57:27.4390804,2024-03-22 16:57:27.4390949,-0.019034,0.694098,-0.513832,-1.470486,0.388792,2.113047,0.097706,0.0100000000000000,0.010000
2024-03-22 16:57:27.4471827,2024-03-22 16:57:27.4472016,-0.019564,0.696850,-0.513842,-1.468627,0.390240,2.113733,0.097025,0.0100000000000000,0.010000
2024-03-22 16:57:27.4593585,2024-03-22 16:57:27.4593910,-0.020289,0.700634,-0.513829,-1.466156,0.392250,2.114643,0.096067,0.0100000000000000,0.010000
2024-03-22 16:57:27.4674851,2024-03-22 16:57:27.4676665,-0.020812,0.703407,-0.513824,-1.464422,0.393750,2.115264,0.095361,0.0100000000000000,0.010000
2024-03-22 16:57:27.4796774,2024-03-22 16:57:27.4796968,-0.021593,0.707578,-0.513818,-1.461907,0.395920,2.116190,0.094332,0.0100000000000000,0.010000
2024-03-22 16:57:27.4877921,2024-03-22 16:57:27.4878128,-0.022112,0.710343,-0.513813,-1.460255,0.397297,2.116798,0.093664,0.0100000000000000,0.010000
2024-03-22 16:57:27.4999717,2024-03-22 16:57:27.4999874,-0.022884,0.714380,-0.513830,-1.457794,0.399341,2.117737,0.092680,0.0100000000000000,0.010000
2024-03-22 16:57:27.5080691,2024-03-22 16:57:27.5080894,-0.023397,0.717071,-0.513846,-1.456137,0.400751,2.118424,0.092025,0.0100000000000000,0.010000
2024-03-22 16:57:27.5202692,2024-03-22 16:57:27.5202824,-0.024153,0.721045,-0.513878,-1.453624,0.402804,2.119409,0.091067,0.0100000000000000,0.010000
2024-03-22 16:57:27.5283744,2024-03-22 16:57:27.5283859,-0.024640,0.723668,-0.513897,-1.451955,0.404180,2.120064,0.090421,0.0100000000000000,0.010000
2024-03-22 16:57:27.5405704,2024-03-22 16:57:27.5405880,-0.025415,0.727929,-0.513908,-1.449294,0.406465,2.121178,0.089400,0.0100000000000000,0.010000
2024-03-22 16:57:27.5486849,2024-03-22 16:57:27.5486988,-0.025883,0.730556,-0.513908,-1.447686,0.407854,2.121869,0.088788,0.0100000000000000,0.010000
2024-03-22 16:57:27.5608764,2024-03-22 16:57:27.5608926,-0.026561,0.734451,-0.513897,-1.445318,0.409874,2.122821,0.087884,0.0100000000000000,0.010000
2024-03-22 16:57:27.5689750,2024-03-22 16:57:27.5689917,-0.027002,0.737017,-0.513892,-1.443766,0.411228,2.123470,0.087286,0.0100000000000000,0.010000
2024-03-22 16:57:27.5790758,2024-03-22 16:57:27.5790920,-0.027661,0.740787,-0.513903,-1.441443,0.413284,2.124467,0.086401,0.0100000000000000,0.010000
2024-03-22 16:57:27.5871964,2024-03-22 16:57:27.5872285,-0.028118,0.743296,-0.513912,-1.439895,0.414664,2.125107,0.085794,0.0100000000000000,0.010000
2024-03-22 16:57:27.5993556,2024-03-22 16:57:27.5993756,-0.028650,0.746372,-0.513946,-1.437988,0.416305,2.125949,0.085058,0.0100000000000000,0.010000
2024-03-22 16:57:27.6074579,2024-03-22 16:57:27.6074713,-0.029115,0.749176,-0.513982,-1.436288,0.417773,2.126726,0.084387,0.0100000000000000,0.010000
2024-03-22 16:57:27.6196604,2024-03-22 16:57:27.6196839,-0.029737,0.752888,-0.513989,-1.434049,0.419760,2.127743,0.083523,0.0100000000000000,0.010000
2024-03-22 16:57:27.6277617,2024-03-22 16:57:27.6277753,-0.030140,0.755397,-0.513983,-1.432616,0.421045,2.128430,0.082957,0.0100000000000000,0.010000
2024-03-22 16:57:27.6399745,2024-03-22 16:57:27.6400061,-0.030746,0.759126,-0.513957,-1.430570,0.422889,2.129446,0.082100,0.0100000000000000,0.010000
2024-03-22 16:57:27.6480745,2024-03-22 16:57:27.6480943,-0.031137,0.761588,-0.513947,-1.429187,0.424138,2.130086,0.081545,0.0100000000000000,0.010000
2024-03-22 16:57:27.6602856,2024-03-22 16:57:27.6603055,-0.031728,0.765188,-0.513957,-1.427119,0.426091,2.131071,0.080690,0.0100000000000000,0.010000
2024-03-22 16:57:27.6683844,2024-03-22 16:57:27.6684014,-0.032183,0.767835,-0.513973,-1.425545,0.427571,2.131851,0.080081,0.0100000000000000,0.010000
2024-03-22 16:57:27.6807907,2024-03-22 16:57:27.6808147,-0.032745,0.771323,-0.513995,-1.423433,0.429427,2.132877,0.079280,0.0100000000000000,0.010000
2024-03-22 16:57:27.6889448,2024-03-22 16:57:27.6889567,-0.033100,0.773626,-0.514010,-1.422009,0.430664,2.133562,0.078740,0.0100000000000000,0.010000
2024-03-22 16:57:27.7011345,2024-03-22 16:57:27.7011521,-0.033637,0.777015,-0.514011,-1.419933,0.432535,2.134611,0.077949,0.0100000000000000,0.010000
2024-03-22 16:57:27.7092346,2024-03-22 16:57:27.7092494,-0.033980,0.779298,-0.514006,-1.418578,0.433817,2.135316,0.077402,0.0100000000000000,0.010000
2024-03-22 16:57:27.7194651,2024-03-22 16:57:27.7194796,-0.034518,0.783016,-0.513993,-1.416473,0.435739,2.136425,0.076571,0.0100000000000000,0.010000
2024-03-22 16:57:27.7275669,2024-03-22 16:57:27.7275806,-0.034844,0.785264,-0.513990,-1.415234,0.436878,2.137091,0.076034,0.0100000000000000,0.010000
2024-03-22 16:57:27.7397304,2024-03-22 16:57:27.7397547,-0.035264,0.788094,-0.513986,-1.413683,0.438349,2.137925,0.075379,0.0100000000000000,0.010000
2024-03-22 16:57:27.7478559,2024-03-22 16:57:27.7478846,-0.035580,0.790293,-0.513990,-1.412466,0.439546,2.138559,0.074864,0.0100000000000000,0.010000
2024-03-22 16:57:27.7600168,2024-03-22 16:57:27.7600364,-0.036080,0.793587,-0.514003,-1.410621,0.441343,2.139604,0.074101,0.0100000000000000,0.010000
2024-03-22 16:57:27.7681292,2024-03-22 16:57:27.7681518,-0.036394,0.795772,-0.514020,-1.409396,0.442463,2.140314,0.073587,0.0100000000000000,0.010000
2024-03-22 16:57:27.7803270,2024-03-22 16:57:27.7803546,-0.036862,0.798985,-0.514027,-1.407613,0.444167,2.141351,0.072854,0.0100000000000000,0.010000
2024-03-22 16:57:27.7884276,2024-03-22 16:57:27.7884393,-0.037215,0.801387,-0.514041,-1.406259,0.445480,2.142132,0.072301,0.0100000000000000,0.010000
2024-03-22 16:57:27.8006012,2024-03-22 16:57:27.8006220,-0.037664,0.804586,-0.514054,-1.404538,0.447208,2.143179,0.071590,0.0100000000000000,0.010000
2024-03-22 16:57:27.8086953,2024-03-22 16:57:27.8087116,-0.037960,0.806707,-0.514046,-1.403430,0.448344,2.143859,0.071102,0.0100000000000000,0.010000
2024-03-22 16:57:27.8209113,2024-03-22 16:57:27.8209311,-0.038394,0.809921,-0.514032,-1.401798,0.450060,2.144869,0.070373,0.0100000000000000,0.010000
2024-03-22 16:57:27.8290100,2024-03-22 16:57:27.8290300,-0.038674,0.812026,-0.514029,-1.400748,0.451213,2.145538,0.069885,0.0100000000000000,0.010000
2024-03-22 16:57:27.8390967,2024-03-22 16:57:27.8391189,-0.039088,0.815109,-0.514029,-1.399157,0.452935,2.146561,0.069195,0.0100000000000000,0.010000
2024-03-22 16:57:27.8471666,2024-03-22 16:57:27.8471880,-0.039360,0.817134,-0.514032,-1.398072,0.454053,2.147217,0.068714,0.0100000000000000,0.010000
2024-03-22 16:57:27.8593282,2024-03-22 16:57:27.8593499,-0.039730,0.819843,-0.514049,-1.396600,0.455512,2.148192,0.068085,0.0100000000000000,0.010000
2024-03-22 16:57:27.8674435,2024-03-22 16:57:27.8674714,-0.039990,0.821830,-0.514067,-1.395511,0.456577,2.148911,0.067616,0.0100000000000000,0.010000
2024-03-22 16:57:27.8795999,2024-03-22 16:57:27.8796146,-0.040366,0.824710,-0.514108,-1.393900,0.458210,2.149937,0.066930,0.0100000000000000,0.010000
2024-03-22 16:57:27.8877173,2024-03-22 16:57:27.8877429,-0.040604,0.826659,-0.514138,-1.392837,0.459274,2.150645,0.066491,0.0100000000000000,0.010000
2024-03-22 16:57:27.8999258,2024-03-22 16:57:27.8999466,-0.040968,0.829490,-0.514147,-1.391292,0.460850,2.151683,0.065831,0.0100000000000000,0.010000
2024-03-22 16:57:27.9080814,2024-03-22 16:57:27.9080994,-0.041212,0.831401,-0.514151,-1.390314,0.461837,2.152340,0.065410,0.0100000000000000,0.010000
2024-03-22 16:57:27.9202134,2024-03-22 16:57:27.9202324,-0.041555,0.834279,-0.514147,-1.388906,0.463392,2.153355,0.064751,0.0100000000000000,0.010000
2024-03-22 16:57:27.9282700,2024-03-22 16:57:27.9282808,-0.041805,0.836416,-0.514149,-1.387893,0.464541,2.154136,0.064277,0.0100000000000000,0.010000
2024-03-22 16:57:27.9403864,2024-03-22 16:57:27.9404069,-0.042148,0.839245,-0.514138,-1.386543,0.466143,2.155141,0.063613,0.0100000000000000,0.010000
2024-03-22 16:57:27.9485028,2024-03-22 16:57:27.9485295,-0.042377,0.841091,-0.514132,-1.385656,0.467145,2.155782,0.063213,0.0100000000000000,0.010000
2024-03-22 16:57:27.9606628,2024-03-22 16:57:27.9606869,-0.042717,0.843828,-0.514154,-1.384322,0.468601,2.156807,0.062571,0.0100000000000000,0.010000
2024-03-22 16:57:27.9687724,2024-03-22 16:57:27.9688014,-0.042934,0.845618,-0.514169,-1.383437,0.469612,2.157520,0.062152,0.0100000000000000,0.010000
2024-03-22 16:57:27.9809505,2024-03-22 16:57:27.9809784,-0.043246,0.848283,-0.514206,-1.382122,0.471134,2.158512,0.061540,0.0100000000000000,0.010000
2024-03-22 16:57:27.9890544,2024-03-22 16:57:27.9890858,-0.043440,0.850021,-0.514229,-1.381256,0.472198,2.159186,0.061098,0.0100000000000000,0.010000
2024-03-22 16:57:27.9991865,2024-03-22 16:57:27.9992165,-0.043745,0.852646,-0.514248,-1.379978,0.473659,2.160210,0.060482,0.0100000000000000,0.010000
2024-03-22 16:57:28.0072945,2024-03-22 16:57:28.0073169,-0.043943,0.854342,-0.514252,-1.379151,0.474594,2.160873,0.060086,0.0100000000000000,0.010000
2024-03-22 16:57:28.0194604,2024-03-22 16:57:28.0194894,-0.044185,0.856490,-0.514259,-1.378148,0.475730,2.161723,0.059598,0.0100000000000000,0.010000
2024-03-22 16:57:28.0275661,2024-03-22 16:57:28.0275926,-0.044392,0.858406,-0.514260,-1.377279,0.476745,2.162482,0.059161,0.0100000000000000,0.010000
2024-03-22 16:57:28.0397368,2024-03-22 16:57:28.0397718,-0.044669,0.860975,-0.514254,-1.376137,0.478145,2.163456,0.058594,0.0100000000000000,0.010000
2024-03-22 16:57:28.0478453,2024-03-22 16:57:28.0478796,-0.044838,0.862653,-0.514248,-1.375408,0.479067,2.164108,0.058215,0.0100000000000000,0.010000
2024-03-22 16:57:28.0601194,2024-03-22 16:57:28.0601533,-0.045093,0.865124,-0.514253,-1.374310,0.480437,2.165077,0.057603,0.0100000000000000,0.010000
2024-03-22 16:57:28.0682175,2024-03-22 16:57:28.0682416,-0.045258,0.866739,-0.514254,-1.373578,0.481280,2.165709,0.057226,0.0100000000000000,0.010000
2024-03-22 16:57:28.0803649,2024-03-22 16:57:28.0803995,-0.045517,0.869320,-0.514278,-1.372413,0.482739,2.166791,0.056611,0.0100000000000000,0.010000
2024-03-22 16:57:28.0884682,2024-03-22 16:57:28.0884930,-0.045660,0.870884,-0.514295,-1.371683,0.483664,2.167490,0.056221,0.0100000000000000,0.010000
2024-03-22 16:57:28.1006207,2024-03-22 16:57:28.1006474,-0.045877,0.873186,-0.514345,-1.370579,0.485060,2.168461,0.055680,0.0100000000000000,0.010000
2024-03-22 16:57:28.1087217,2024-03-22 16:57:28.1087471,-0.046008,0.874703,-0.514380,-1.369842,0.485920,2.169104,0.055305,0.0100000000000000,0.010000
2024-03-22 16:57:28.1208766,2024-03-22 16:57:28.1209009,-0.046209,0.876948,-0.514405,-1.368756,0.487198,2.170088,0.054768,0.0100000000000000,0.010000
2024-03-22 16:57:28.1289736,2024-03-22 16:57:28.1290011,-0.046338,0.878432,-0.514409,-1.368050,0.488056,2.170712,0.054427,0.0100000000000000,0.010000
2024-03-22 16:57:28.1411245,2024-03-22 16:57:28.1411563,-0.046527,0.880613,-0.514423,-1.367045,0.489344,2.171646,0.053878,0.0100000000000000,0.010000
2024-03-22 16:57:28.1492296,2024-03-22 16:57:28.1492605,-0.046642,0.882072,-0.514431,-1.366403,0.490212,2.172292,0.053527,0.0100000000000000,0.010000
2024-03-22 16:57:28.1593254,2024-03-22 16:57:28.1593861,-0.046842,0.884435,-0.514432,-1.365411,0.491601,2.173274,0.052959,0.0100000000000000,0.010000
2024-03-22 16:57:28.1674288,2024-03-22 16:57:28.1674596,-0.046960,0.885897,-0.514430,-1.364834,0.492436,2.173892,0.052625,0.0100000000000000,0.010000
2024-03-22 16:57:28.1795762,2024-03-22 16:57:28.1796172,-0.047092,0.887682,-0.514425,-1.364144,0.493434,2.174673,0.052214,0.0100000000000000,0.010000
2024-03-22 16:57:28.1876657,2024-03-22 16:57:28.1877017,-0.047209,0.889108,-0.514419,-1.363604,0.494230,2.175256,0.051883,0.0100000000000000,0.010000
2024-03-22 16:57:28.1998072,2024-03-22 16:57:28.1998324,-0.047357,0.891219,-0.514424,-1.362786,0.495444,2.176180,0.051364,0.0100000000000000,0.010000
2024-03-22 16:57:28.2078610,2024-03-22 16:57:28.2078820,-0.047455,0.892429,-0.514425,-1.362297,0.496136,2.176704,0.051076,0.0100000000000000,0.010000
2024-03-22 16:57:28.2199848,2024-03-22 16:57:28.2200017,-0.047636,0.894634,-0.514443,-1.361398,0.497450,2.177703,0.050540,0.0100000000000000,0.010000
2024-03-22 16:57:28.2280531,2024-03-22 16:57:28.2280714,-0.047725,0.895964,-0.514454,-1.360868,0.498220,2.178315,0.050224,0.0100000000000000,0.010000
2024-03-22 16:57:28.2401769,2024-03-22 16:57:28.2401981,-0.047860,0.897909,-0.514488,-1.360065,0.499345,2.179188,0.049756,0.0100000000000000,0.010000
2024-03-22 16:57:28.2482791,2024-03-22 16:57:28.2482935,-0.047950,0.899204,-0.514507,-1.359530,0.500062,2.179803,0.049427,0.0100000000000000,0.010000
2024-03-22 16:57:28.2604704,2024-03-22 16:57:28.2604857,-0.048091,0.901270,-0.514546,-1.358686,0.501216,2.180785,0.048916,0.0100000000000000,0.010000
2024-03-22 16:57:28.2686038,2024-03-22 16:57:28.2687296,-0.048177,0.902516,-0.514565,-1.358177,0.501965,2.181357,0.048627,0.0100000000000000,0.010000
2024-03-22 16:57:28.2808950,2024-03-22 16:57:28.2809276,-0.048308,0.904356,-0.514578,-1.357428,0.503070,2.182233,0.048154,0.0100000000000000,0.010000
2024-03-22 16:57:28.2890917,2024-03-22 16:57:28.2891179,-0.048399,0.905577,-0.514591,-1.356940,0.503843,2.182774,0.047822,0.0100000000000000,0.010000
2024-03-22 16:57:28.2992532,2024-03-22 16:57:28.2992886,-0.048514,0.907383,-0.514608,-1.356242,0.504999,2.183651,0.047376,0.0100000000000000,0.010000
2024-03-22 16:57:28.3073682,2024-03-22 16:57:28.3074142,-0.048611,0.908751,-0.514612,-1.355737,0.505774,2.184276,0.047060,0.0100000000000000,0.010000
2024-03-22 16:57:28.3195846,2024-03-22 16:57:28.3196419,-0.048708,0.910227,-0.514602,-1.355207,0.506603,2.184975,0.046686,0.0100000000000000,0.010000
2024-03-22 16:57:28.3276765,2024-03-22 16:57:28.3277102,-0.048785,0.911411,-0.514605,-1.354802,0.507259,2.185527,0.046386,0.0100000000000000,0.010000
2024-03-22 16:57:28.3398401,2024-03-22 16:57:28.3398741,-0.048892,0.913164,-0.514599,-1.354217,0.508263,2.186346,0.045968,0.0100000000000000,0.010000
2024-03-22 16:57:28.3479527,2024-03-22 16:57:28.3479830,-0.048976,0.914295,-0.514594,-1.353847,0.508964,2.186923,0.045691,0.0100000000000000,0.010000
2024-03-22 16:57:28.3601127,2024-03-22 16:57:28.3601350,-0.049082,0.915976,-0.514600,-1.353297,0.509985,2.187701,0.045269,0.0100000000000000,0.010000
2024-03-22 16:57:28.3682199,2024-03-22 16:57:28.3682475,-0.049150,0.917068,-0.514608,-1.352929,0.510660,2.188260,0.044985,0.0100000000000000,0.010000
2024-03-22 16:57:28.3803847,2024-03-22 16:57:28.3804089,-0.049261,0.918800,-0.514627,-1.352318,0.511771,2.189100,0.044544,0.0100000000000000,0.010000
2024-03-22 16:57:28.3885525,2024-03-22 16:57:28.3885747,-0.049316,0.919846,-0.514656,-1.351946,0.512417,2.189649,0.044275,0.0100000000000000,0.010000
2024-03-22 16:57:28.4008690,2024-03-22 16:57:28.4008997,-0.049392,0.921383,-0.514704,-1.351386,0.513296,2.190420,0.043879,0.0100000000000000,0.010000
2024-03-22 16:57:28.4090393,2024-03-22 16:57:28.4090612,-0.049437,0.922402,-0.514746,-1.351008,0.513907,2.190919,0.043619,0.0100000000000000,0.010000
2024-03-22 16:57:28.4191691,2024-03-22 16:57:28.4191949,-0.049510,0.923869,-0.514803,-1.350454,0.514832,2.191653,0.043215,0.0100000000000000,0.010000
2024-03-22 16:57:28.4273226,2024-03-22 16:57:28.4273515,-0.049562,0.924987,-0.514829,-1.350034,0.515467,2.192229,0.042936,0.0100000000000000,0.010000
2024-03-22 16:57:28.4395991,2024-03-22 16:57:28.4396212,-0.049614,0.926179,-0.514875,-1.349607,0.516230,2.192861,0.042627,0.0100000000000000,0.010000
2024-03-22 16:57:28.4477886,2024-03-22 16:57:28.4478113,-0.049634,0.927110,-0.514910,-1.349269,0.516819,2.193377,0.042387,0.0100000000000000,0.010000
2024-03-22 16:57:28.4600912,2024-03-22 16:57:28.4601137,-0.049693,0.928507,-0.514919,-1.348771,0.517707,2.194103,0.042007,0.0100000000000000,0.010000
2024-03-22 16:57:28.4682815,2024-03-22 16:57:28.4683004,-0.049730,0.929411,-0.514926,-1.348448,0.518275,2.194578,0.041758,0.0100000000000000,0.010000
2024-03-22 16:57:28.4805833,2024-03-22 16:57:28.4806059,-0.049770,0.930881,-0.514940,-1.347950,0.519174,2.195315,0.041385,0.0100000000000000,0.010000
2024-03-22 16:57:28.4887809,2024-03-22 16:57:28.4888012,-0.049786,0.931756,-0.514950,-1.347647,0.519713,2.195787,0.041177,0.0100000000000000,0.010000
2024-03-22 16:57:28.5010621,2024-03-22 16:57:28.5010815,-0.049797,0.933065,-0.514969,-1.347231,0.520451,2.196465,0.040835,0.0100000000000000,0.010000
2024-03-22 16:57:28.5092046,2024-03-22 16:57:28.5092293,-0.049800,0.933936,-0.514976,-1.346972,0.520998,2.196930,0.040596,0.0100000000000000,0.010000
2024-03-22 16:57:28.5193081,2024-03-22 16:57:28.5193317,-0.049803,0.935302,-0.514977,-1.346558,0.521832,2.197588,0.040234,0.0100000000000000,0.010000
2024-03-22 16:57:28.5274158,2024-03-22 16:57:28.5274374,-0.049801,0.936152,-0.514975,-1.346327,0.522371,2.198034,0.040037,0.0100000000000000,0.010000
2024-03-22 16:57:28.5395836,2024-03-22 16:57:28.5396122,-0.049805,0.937197,-0.514972,-1.346025,0.523006,2.198547,0.039784,0.0100000000000000,0.010000
2024-03-22 16:57:28.5476925,2024-03-22 16:57:28.5477200,-0.049800,0.938007,-0.514964,-1.345804,0.523530,2.198975,0.039568,0.0100000000000000,0.010000
2024-03-22 16:57:28.5598537,2024-03-22 16:57:28.5598857,-0.049805,0.939207,-0.514958,-1.345479,0.524259,2.199615,0.039245,0.0100000000000000,0.010000
2024-03-22 16:57:28.5679609,2024-03-22 16:57:28.5679848,-0.049802,0.939979,-0.514961,-1.345272,0.524744,2.200019,0.039026,0.0100000000000000,0.010000
2024-03-22 16:57:28.5801222,2024-03-22 16:57:28.5801464,-0.049802,0.941096,-0.514963,-1.344962,0.525402,2.200624,0.038739,0.0100000000000000,0.010000
2024-03-22 16:57:28.5882303,2024-03-22 16:57:28.5882581,-0.049797,0.941817,-0.514964,-1.344753,0.525890,2.200987,0.038533,0.0100000000000000,0.010000
2024-03-22 16:57:28.6004008,2024-03-22 16:57:28.6004247,-0.049808,0.942999,-0.514972,-1.344381,0.526643,2.201631,0.038212,0.0100000000000000,0.010000
2024-03-22 16:57:28.6085090,2024-03-22 16:57:28.6085321,-0.049812,0.943703,-0.514987,-1.344143,0.527107,2.202010,0.038019,0.0100000000000000,0.010000
2024-03-22 16:57:28.6206700,2024-03-22 16:57:28.6206995,-0.049816,0.944721,-0.515022,-1.343823,0.527752,2.202583,0.037743,0.0100000000000000,0.010000
2024-03-22 16:57:28.6287687,2024-03-22 16:57:28.6287919,-0.049819,0.945376,-0.515039,-1.343619,0.528214,2.202975,0.037574,0.0100000000000000,0.010000
2024-03-22 16:57:28.6631092,2024-03-22 16:57:28.6631386,-0.049816,0.946338,-0.515067,-1.343307,0.528872,2.203489,0.037295,0.0100000000000000,0.010000
2024-03-22 16:57:28.6640536,2024-03-22 16:57:28.6640779,-0.049832,0.949556,-0.515167,-1.342290,0.531054,2.205318,0.036354,0.0100000000000000,0.010000
2024-03-22 16:57:28.6650390,2024-03-22 16:57:28.6650727,-0.049829,0.949621,-0.515170,-1.342270,0.531101,2.205358,0.036339,0.0100000000000000,0.010000
2024-03-22 16:57:28.6672102,2024-03-22 16:57:28.6672389,-0.049828,0.949694,-0.515170,-1.342250,0.531148,2.205398,0.036312,0.0100000000000000,0.010000
2024-03-22 16:57:28.6798901,2024-03-22 16:57:28.6799154,-0.049831,0.949764,-0.515176,-1.342231,0.531199,2.205437,0.036294,0.0100000000000000,0.010000
2024-03-22 16:57:28.6879595,2024-03-22 16:57:28.6879873,-0.049831,0.949818,-0.515177,-1.342209,0.531243,2.205473,0.036268,0.0100000000000000,0.010000
2024-03-22 16:57:28.7000871,2024-03-22 16:57:28.7001141,-0.049836,0.950662,-0.515205,-1.341942,0.531793,2.205919,0.036019,0.0100000000000000,0.010000
2024-03-22 16:57:28.7081482,2024-03-22 16:57:28.7081683,-0.049834,0.951219,-0.515225,-1.341782,0.532141,2.206234,0.035874,0.0100000000000000,0.010000
2024-03-22 16:57:28.7203100,2024-03-22 16:57:28.7203560,-0.049832,0.952031,-0.515256,-1.341543,0.532624,2.206706,0.035660,0.0100000000000000,0.010000
2024-03-22 16:57:28.7285215,2024-03-22 16:57:28.7285484,-0.049832,0.952598,-0.515275,-1.341400,0.532991,2.207022,0.035504,0.0100000000000000,0.010000
2024-03-22 16:57:28.7406316,2024-03-22 16:57:28.7406455,-0.049832,0.953348,-0.515288,-1.341221,0.533456,2.207424,0.035300,0.0100000000000000,0.010000
2024-03-22 16:57:28.7487086,2024-03-22 16:57:28.7487301,-0.049837,0.953834,-0.515284,-1.341103,0.533769,2.207702,0.035139,0.0100000000000000,0.010000
2024-03-22 16:57:28.7608271,2024-03-22 16:57:28.7608494,-0.049839,0.954532,-0.515287,-1.340933,0.534273,2.208078,0.034915,0.0100000000000000,0.010000
2024-03-22 16:57:28.7688899,2024-03-22 16:57:28.7689123,-0.049844,0.954984,-0.515293,-1.340815,0.534581,2.208321,0.034779,0.0100000000000000,0.010000
2024-03-22 16:57:28.7810224,2024-03-22 16:57:28.7810574,-0.049840,0.955656,-0.515310,-1.340648,0.534994,2.208698,0.034593,0.0100000000000000,0.010000
2024-03-22 16:57:28.7890763,2024-03-22 16:57:28.7890882,-0.049839,0.956107,-0.515325,-1.340532,0.535267,2.208957,0.034476,0.0100000000000000,0.010000
2024-03-22 16:57:28.7991444,2024-03-22 16:57:28.7991636,-0.049834,0.956723,-0.515351,-1.340368,0.535694,2.209304,0.034312,0.0100000000000000,0.010000
2024-03-22 16:57:28.8072088,2024-03-22 16:57:28.8072264,-0.049836,0.957138,-0.515362,-1.340261,0.535949,2.209518,0.034208,0.0100000000000000,0.010000
2024-03-22 16:57:28.8193321,2024-03-22 16:57:28.8193521,-0.049833,0.957665,-0.515363,-1.340136,0.536294,2.209799,0.034055,0.0100000000000000,0.010000
2024-03-22 16:57:28.8273994,2024-03-22 16:57:28.8274350,-0.049838,0.957983,-0.515371,-1.340059,0.536515,2.209969,0.033966,0.0100000000000000,0.010000
2024-03-22 16:57:28.8395199,2024-03-22 16:57:28.8395450,-0.049838,0.958576,-0.515380,-1.339917,0.536915,2.210275,0.033798,0.0100000000000000,0.010000
2024-03-22 16:57:28.8475902,2024-03-22 16:57:28.8476268,-0.049836,0.958901,-0.515393,-1.339832,0.537138,2.210448,0.033688,0.0100000000000000,0.010000
2024-03-22 16:57:28.8597069,2024-03-22 16:57:28.8597294,-0.049832,0.959392,-0.515412,-1.339711,0.537459,2.210705,0.033542,0.0100000000000000,0.010000
2024-03-22 16:57:28.8677742,2024-03-22 16:57:28.8677944,-0.049840,0.959694,-0.515423,-1.339621,0.537665,2.210876,0.033446,0.0100000000000000,0.010000
2024-03-22 16:57:28.8798902,2024-03-22 16:57:28.8799152,-0.049821,0.960140,-0.515463,-1.339497,0.537950,2.211138,0.033306,0.0100000000000000,0.010000
2024-03-22 16:57:28.8879529,2024-03-22 16:57:28.8879687,-0.049825,0.960415,-0.515477,-1.339414,0.538134,2.211297,0.033221,0.0100000000000000,0.010000
2024-03-22 16:57:28.9000843,2024-03-22 16:57:28.9001042,-0.049822,0.960801,-0.515496,-1.339299,0.538384,2.211525,0.033108,0.0100000000000000,0.010000
2024-03-22 16:57:28.9081410,2024-03-22 16:57:28.9081671,-0.049828,0.961046,-0.515512,-1.339229,0.538539,2.211660,0.033030,0.0100000000000000,0.010000
2024-03-22 16:57:28.9202651,2024-03-22 16:57:28.9202840,-0.049822,0.961401,-0.515543,-1.339115,0.538781,2.211846,0.032917,0.0100000000000000,0.010000
2024-03-22 16:57:28.9283347,2024-03-22 16:57:28.9283539,-0.049819,0.961555,-0.515550,-1.339066,0.538889,2.211930,0.032858,0.0100000000000000,0.010000
2024-03-22 16:57:28.9404591,2024-03-22 16:57:28.9404790,-0.049818,0.961891,-0.515572,-1.338952,0.539131,2.212125,0.032747,0.0100000000000000,0.010000
2024-03-22 16:57:28.9485253,2024-03-22 16:57:28.9485436,-0.049815,0.962056,-0.515589,-1.338891,0.539262,2.212235,0.032697,0.0100000000000000,0.010000
2024-03-22 16:57:28.9606511,2024-03-22 16:57:28.9606828,-0.049815,0.962285,-0.515616,-1.338817,0.539434,2.212392,0.032620,0.0100000000000000,0.010000
2024-03-22 16:57:28.9687159,2024-03-22 16:57:28.9687368,-0.049801,0.962429,-0.515639,-1.338782,0.539541,2.212496,0.032566,0.0100000000000000,0.010000
2024-03-22 16:57:28.9808452,2024-03-22 16:57:28.9808713,-0.049790,0.962612,-0.515680,-1.338740,0.539691,2.212627,0.032499,0.0100000000000000,0.010000
2024-03-22 16:57:28.9889062,2024-03-22 16:57:28.9889233,-0.049778,0.962712,-0.515698,-1.338721,0.539786,2.212707,0.032467,0.0100000000000000,0.010000
2024-03-22 16:57:29.0010345,2024-03-22 16:57:29.0010586,-0.049773,0.962859,-0.515732,-1.338694,0.539920,2.212816,0.032418,0.0100000000000000,0.010000
2024-03-22 16:57:29.0091005,2024-03-22 16:57:29.0091220,-0.049764,0.962934,-0.515748,-1.338668,0.540001,2.212873,0.032397,0.0100000000000000,0.010000
2024-03-22 16:57:29.0191741,2024-03-22 16:57:29.0191944,-0.049758,0.963058,-0.515769,-1.338631,0.540122,2.212953,0.032360,0.0100000000000000,0.010000
2024-03-22 16:57:29.0272383,2024-03-22 16:57:29.0272557,-0.049752,0.963140,-0.515786,-1.338613,0.540192,2.212983,0.032335,0.0100000000000000,0.010000
2024-03-22 16:57:29.0393932,2024-03-22 16:57:29.0394198,-0.049751,0.963229,-0.515818,-1.338591,0.540267,2.213005,0.032310,0.0100000000000000,0.010000
2024-03-22 16:57:29.0474593,2024-03-22 16:57:29.0474810,-0.049742,0.963305,-0.515837,-1.338580,0.540305,2.213014,0.032297,0.0100000000000000,0.010000
2024-03-22 16:57:29.0595787,2024-03-22 16:57:29.0595958,-0.049740,0.963367,-0.515857,-1.338583,0.540333,2.213018,0.032280,0.0100000000000000,0.010000
2024-03-22 16:57:33.9379716,2024-03-22 16:57:33.9382026,-0.051118,0.964869,-0.517029,-1.340455,0.539960,2.211485,0.032227,0.0200000000000000,0.020000
2024-03-22 16:57:33.9389585,2024-03-22 16:57:33.9390092,-0.051118,0.964866,-0.517027,-1.340445,0.539957,2.211487,0.032225,0.0200000000000000,0.020000
2024-03-22 16:57:33.9399631,2024-03-22 16:57:33.9399824,-0.051117,0.964869,-0.517029,-1.340445,0.539959,2.211489,0.032228,0.0200000000000000,0.020000
2024-03-22 16:57:33.9408864,2024-03-22 16:57:33.9409098,-0.051118,0.964872,-0.517032,-1.340447,0.539958,2.211486,0.032223,0.0200000000000000,0.020000
2024-03-22 16:57:33.9418804,2024-03-22 16:57:33.9419554,-0.051116,0.964866,-0.517030,-1.340445,0.539959,2.211487,0.032230,0.0200000000000000,0.020000
2024-03-22 16:57:33.9428879,2024-03-22 16:57:33.9429480,-0.051121,0.964872,-0.517028,-1.340447,0.539961,2.211488,0.032224,0.0200000000000000,0.020000
2024-03-22 16:57:33.9438698,2024-03-22 16:57:33.9439016,-0.051119,0.964874,-0.517027,-1.340453,0.539959,2.211489,0.032228,0.0200000000000000,0.020000
2024-03-22 16:57:33.9449872,2024-03-22 16:57:33.9450184,-0.051118,0.964870,-0.517024,-1.340447,0.539959,2.211491,0.032224,0.0200000000000000,0.020000
2024-03-22 16:57:33.9459590,2024-03-22 16:57:33.9459935,-0.051114,0.964864,-0.517022,-1.340442,0.539960,2.211494,0.032224,0.0200000000000000,0.020000
2024-03-22 16:57:33.9469550,2024-03-22 16:57:33.9469850,-0.051119,0.964863,-0.517024,-1.340442,0.539959,2.211491,0.032222,0.0200000000000000,0.020000
2024-03-22 16:57:33.9479441,2024-03-22 16:57:33.9479796,-0.051119,0.964870,-0.517029,-1.340445,0.539958,2.211490,0.032224,0.0200000000000000,0.020000
2024-03-22 16:57:33.9489303,2024-03-22 16:57:33.9489555,-0.051119,0.964859,-0.517022,-1.340447,0.539958,2.211489,0.032227,0.0200000000000000,0.020000
2024-03-22 16:57:33.9499386,2024-03-22 16:57:33.9499672,-0.051119,0.964861,-0.517024,-1.340442,0.539958,2.211490,0.032219,0.0200000000000000,0.020000
2024-03-22 16:57:33.9509140,2024-03-22 16:57:33.9509516,-0.051119,0.964865,-0.517022,-1.340442,0.539958,2.211492,0.032225,0.0200000000000000,0.020000
2024-03-22 16:57:33.9519040,2024-03-22 16:57:33.9519389,-0.051119,0.964856,-0.517024,-1.340445,0.539958,2.211493,0.032224,0.0200000000000000,0.020000
2024-03-22 16:57:33.9529063,2024-03-22 16:57:33.9529389,-0.051112,0.964866,-0.517022,-1.340442,0.539958,2.211489,0.032227,0.0200000000000000,0.020000
2024-03-22 16:57:33.9539188,2024-03-22 16:57:33.9539575,-0.051113,0.964864,-0.517022,-1.340450,0.539958,2.211489,0.032225,0.0200000000000000,0.020000
2024-03-22 16:57:33.9548942,2024-03-22 16:57:33.9549179,-0.051115,0.964866,-0.517027,-1.340445,0.539959,2.211490,0.032226,0.0200000000000000,0.020000
2024-03-22 16:57:33.9559122,2024-03-22 16:57:33.9559392,-0.051116,0.964851,-0.517024,-1.340445,0.539956,2.211490,0.032228,0.0200000000000000,0.020000
2024-03-22 16:57:33.9569076,2024-03-22 16:57:33.9569444,-0.051119,0.964864,-0.517024,-1.340450,0.539957,2.211489,0.032225,0.0200000000000000,0.020000
2024-03-22 16:57:33.9579250,2024-03-22 16:57:33.9579437,-0.051119,0.964859,-0.517022,-1.340445,0.539958,2.211489,0.032226,0.0200000000000000,0.020000
2024-03-22 16:57:33.9591146,2024-03-22 16:57:33.9591641,-0.051117,0.964861,-0.517027,-1.340447,0.539960,2.211484,0.032224,0.0200000000000000,0.020000
2024-03-22 16:57:33.9599541,2024-03-22 16:57:33.9599775,-0.051121,0.964859,-0.517022,-1.340447,0.539957,2.211488,0.032225,0.0200000000000000,0.020000
2024-03-22 16:57:33.9608918,2024-03-22 16:57:33.9609273,-0.051116,0.964864,-0.517024,-1.340445,0.539958,2.211488,0.032227,0.0200000000000000,0.020000
2024-03-22 16:57:33.9618821,2024-03-22 16:57:33.9618992,-0.051121,0.964864,-0.517024,-1.340450,0.539958,2.211491,0.032223,0.0200000000000000,0.020000
2024-03-22 16:57:33.9628821,2024-03-22 16:57:33.9629193,-0.051119,0.964861,-0.517022,-1.340447,0.539959,2.211487,0.032227,0.0200000000000000,0.020000
2024-03-22 16:57:33.9638847,2024-03-22 16:57:33.9639167,-0.051122,0.964866,-0.517022,-1.340447,0.539958,2.211489,0.032224,0.0200000000000000,0.020000
2024-03-22 16:57:33.9648975,2024-03-22 16:57:33.9649308,-0.051119,0.964856,-0.517022,-1.340450,0.539957,2.211488,0.032227,0.0200000000000000,0.020000
2024-03-22 16:57:33.9658929,2024-03-22 16:57:33.9659362,-0.051122,0.964865,-0.517027,-1.340445,0.539960,2.211488,0.032223,0.0200000000000000,0.020000
2024-03-22 16:57:33.9667756,2024-03-22 16:57:33.9668198,-0.051122,0.964864,-0.517024,-1.340447,0.539959,2.211492,0.032227,0.0200000000000000,0.020000
2024-03-22 16:57:33.9678640,2024-03-22 16:57:33.9679057,-0.051129,0.964866,-0.517022,-1.340445,0.539960,2.211488,0.032226,0.0200000000000000,0.020000
2024-03-22 16:57:33.9688596,2024-03-22 16:57:33.9689024,-0.051122,0.964856,-0.517022,-1.340450,0.539959,2.211485,0.032224,0.0200000000000000,0.020000
2024-03-22 16:57:33.9700473,2024-03-22 16:57:33.9700705,-0.051116,0.964861,-0.517027,-1.340445,0.539959,2.211492,0.032226,0.0200000000000000,0.020000
2024-03-22 16:57:33.9791184,2024-03-22 16:57:33.9791441,-0.051124,0.964861,-0.517024,-1.340445,0.539959,2.211492,0.032225,0.0200000000000000,0.020000
2024-03-22 16:57:33.9892534,2024-03-22 16:57:33.9892845,-0.051124,0.964864,-0.517029,-1.340447,0.539960,2.211487,0.032228,0.0200000000000000,0.020000
2024-03-22 16:57:33.9993800,2024-03-22 16:57:33.9994104,-0.051128,0.964856,-0.517027,-1.340445,0.539960,2.211486,0.032228,0.0200000000000000,0.020000
2024-03-22 16:57:34.0094851,2024-03-22 16:57:34.0095200,-0.051128,0.964859,-0.517019,-1.340443,0.539960,2.211487,0.032227,0.0200000000000000,0.020000
2024-03-22 16:57:34.0431108,2024-03-22 16:57:34.0431559,-0.051123,0.964859,-0.517024,-1.340448,0.539959,2.211486,0.032221,0.0200000000000000,0.020000
2024-03-22 16:57:34.0439147,2024-03-22 16:57:34.0439435,-0.051122,0.964864,-0.517024,-1.340442,0.539960,2.211487,0.032222,0.0200000000000000,0.020000
2024-03-22 16:57:34.0448862,2024-03-22 16:57:34.0449233,-0.051127,0.964859,-0.517024,-1.340447,0.539958,2.211487,0.032228,0.0200000000000000,0.020000
2024-03-22 16:57:34.0501041,2024-03-22 16:57:34.0501326,-0.051125,0.964872,-0.517027,-1.340445,0.539960,2.211487,0.032222,0.0200000000000000,0.020000
2024-03-22 16:57:34.0591981,2024-03-22 16:57:34.0592271,-0.051125,0.964866,-0.517027,-1.340442,0.539960,2.211488,0.032229,0.0200000000000000,0.020000
2024-03-22 16:57:34.0693518,2024-03-22 16:57:34.0693858,-0.051122,0.964864,-0.517027,-1.340442,0.539960,2.211487,0.032225,0.0200000000000000,0.020000
2024-03-22 16:57:34.0795023,2024-03-22 16:57:34.0795313,-0.051120,0.964861,-0.517024,-1.340447,0.539960,2.211488,0.032225,0.0200000000000000,0.020000
2024-03-22 16:57:34.0896583,2024-03-22 16:57:34.0896932,-0.051122,0.964864,-0.517022,-1.340443,0.539961,2.211488,0.032227,0.0200000000000000,0.020000
2024-03-22 16:57:34.0998117,2024-03-22 16:57:34.0998415,-0.051119,0.964866,-0.517019,-1.340444,0.539958,2.211487,0.032228,0.0200000000000000,0.020000
2024-03-22 16:57:34.1310959,2024-03-22 16:57:34.1311286,-0.051125,0.964869,-0.517024,-1.340447,0.539961,2.211488,0.032225,0.0200000000000000,0.020000
2024-03-22 16:57:34.1319110,2024-03-22 16:57:34.1319488,-0.051125,0.964866,-0.517027,-1.340453,0.539957,2.211488,0.032227,0.0200000000000000,0.020000
2024-03-22 16:57:34.1328992,2024-03-22 16:57:34.1329264,-0.051122,0.964861,-0.517029,-1.340448,0.539957,2.211488,0.032225,0.0200000000000000,0.020000
2024-03-22 16:57:34.1394695,2024-03-22 16:57:34.1394933,-0.051117,0.964868,-0.517024,-1.340445,0.539958,2.211487,0.032224,0.0200000000000000,0.020000
2024-03-22 16:57:34.1496333,2024-03-22 16:57:34.1496693,-0.051121,0.964863,-0.517022,-1.340448,0.539958,2.211488,0.032222,0.0200000000000000,0.020000
2024-03-22 16:57:34.1597966,2024-03-22 16:57:34.1598259,-0.051122,0.964864,-0.517025,-1.340448,0.539957,2.211488,0.032225,0.0200000000000000,0.020000
2024-03-22 16:57:34.1699511,2024-03-22 16:57:34.1699825,-0.051119,0.964863,-0.517024,-1.340445,0.539959,2.211485,0.032226,0.0200000000000000,0.020000
2024-03-22 16:57:34.2031084,2024-03-22 16:57:34.2031482,-0.051125,0.964857,-0.517024,-1.340443,0.539958,2.211483,0.032228,0.0200000000000000,0.020000
2024-03-22 16:57:34.2039707,2024-03-22 16:57:34.2039969,-0.051120,0.964852,-0.517025,-1.340448,0.539942,2.211473,0.032227,0.0200000000000000,0.020000
2024-03-22 16:57:34.2048974,2024-03-22 16:57:34.2049556,-0.051122,0.964852,-0.517025,-1.340446,0.539942,2.211473,0.032223,0.0200000000000000,0.020000
2024-03-22 16:57:34.2096157,2024-03-22 16:57:34.2096432,-0.051119,0.964857,-0.517025,-1.340451,0.539942,2.211471,0.032223,0.0200000000000000,0.020000
2024-03-22 16:57:34.2197740,2024-03-22 16:57:34.2198620,-0.051122,0.964854,-0.517025,-1.340450,0.539944,2.211470,0.032224,0.0200000000000000,0.020000
2024-03-22 16:57:34.2299345,2024-03-22 16:57:34.2299590,-0.051119,0.964847,-0.517025,-1.340451,0.539939,2.211471,0.032220,0.0200000000000000,0.020000
2024-03-22 16:57:34.2400905,2024-03-22 16:57:34.2401172,-0.051121,0.964848,-0.517025,-1.340448,0.539933,2.211468,0.032226,0.0200000000000000,0.020000
2024-03-22 16:57:34.2471979,2024-03-22 16:57:34.2472228,-0.051119,0.964837,-0.517022,-1.340453,0.539920,2.211460,0.032221,0.0200000000000000,0.020000
2024-03-22 16:57:34.2594622,2024-03-22 16:57:34.2594907,-0.051119,0.964845,-0.517019,-1.340452,0.539907,2.211451,0.032223,0.0200000000000000,0.020000
2024-03-22 16:57:34.2696285,2024-03-22 16:57:34.2696630,-0.051124,0.964830,-0.517025,-1.340456,0.539893,2.211444,0.032228,0.0200000000000000,0.020000
2024-03-22 16:57:34.2799991,2024-03-22 16:57:34.2800227,-0.051129,0.964817,-0.517019,-1.340458,0.539866,2.211429,0.032227,0.0200000000000000,0.020000
2024-03-22 16:57:34.2870949,2024-03-22 16:57:34.2871174,-0.051122,0.964803,-0.517019,-1.340467,0.539817,2.211409,0.032228,0.0200000000000000,0.020000
2024-03-22 16:57:34.3231096,2024-03-22 16:57:34.3231362,-0.051116,0.964782,-0.517009,-1.340479,0.539749,2.211375,0.032224,0.0200000000000000,0.020000
2024-03-22 16:57:34.3238976,2024-03-22 16:57:34.3239266,-0.051112,0.964608,-0.517004,-1.340668,0.539651,2.211250,0.032231,0.0200000000000000,0.020000
2024-03-22 16:57:34.3248790,2024-03-22 16:57:34.3249135,-0.051113,0.964598,-0.516998,-1.340676,0.539648,2.211248,0.032227,0.0200000000000000,0.020000
2024-03-22 16:57:34.3297941,2024-03-22 16:57:34.3298232,-0.051114,0.964599,-0.517000,-1.340682,0.539645,2.211248,0.032233,0.0200000000000000,0.020000
2024-03-22 16:57:34.3399536,2024-03-22 16:57:34.3399786,-0.051114,0.964585,-0.517003,-1.340689,0.539643,2.211246,0.032230,0.0200000000000000,0.020000
2024-03-22 16:57:34.3501163,2024-03-22 16:57:34.3501463,-0.051117,0.964564,-0.516993,-1.340710,0.539624,2.211233,0.032235,0.0200000000000000,0.020000
2024-03-22 16:57:34.3592097,2024-03-22 16:57:34.3592324,-0.051114,0.964501,-0.516992,-1.340759,0.539577,2.211189,0.032235,0.0200000000000000,0.020000
2024-03-22 16:57:34.3910974,2024-03-22 16:57:34.3911270,-0.051115,0.964432,-0.516992,-1.340789,0.539522,2.211122,0.032244,0.0200000000000000,0.020000
2024-03-22 16:57:34.3919128,2024-03-22 16:57:34.3919437,-0.051085,0.964080,-0.516980,-1.340880,0.539260,2.210862,0.032271,0.0200000000000000,0.020000
2024-03-22 16:57:34.3928950,2024-03-22 16:57:34.3929259,-0.051093,0.964072,-0.516972,-1.340883,0.539252,2.210850,0.032275,0.0200000000000000,0.020000
2024-03-22 16:57:34.3998087,2024-03-22 16:57:34.3998402,-0.051091,0.964049,-0.516977,-1.340889,0.539240,2.210843,0.032272,0.0200000000000000,0.020000
2024-03-22 16:57:34.4099624,2024-03-22 16:57:34.4099898,-0.051087,0.964040,-0.516974,-1.340893,0.539234,2.210835,0.032275,0.0200000000000000,0.020000
2024-03-22 16:57:34.4201215,2024-03-22 16:57:34.4201491,-0.051081,0.963986,-0.516977,-1.340895,0.539191,2.210797,0.032290,0.0200000000000000,0.020000
2024-03-22 16:57:34.4272195,2024-03-22 16:57:34.4272512,-0.051077,0.963864,-0.516983,-1.340909,0.539098,2.210699,0.032332,0.0200000000000000,0.020000
2024-03-22 16:57:34.4394861,2024-03-22 16:57:34.4395111,-0.051062,0.963726,-0.516985,-1.340926,0.539006,2.210615,0.032453,0.0200000000000000,0.020000
2024-03-22 16:57:34.4496488,2024-03-22 16:57:34.4498563,-0.051056,0.963633,-0.516989,-1.340936,0.538939,2.210554,0.032496,0.0200000000000000,0.020000
2024-03-22 16:57:34.4597970,2024-03-22 16:57:34.4598260,-0.051049,0.963437,-0.516995,-1.340988,0.538819,2.210435,0.032532,0.0200000000000000,0.020000
2024-03-22 16:57:34.4699565,2024-03-22 16:57:34.4699922,-0.051051,0.963261,-0.516997,-1.341046,0.538721,2.210336,0.032562,0.0200000000000000,0.020000
2024-03-22 16:57:34.5031062,2024-03-22 16:57:34.5031337,-0.051047,0.963071,-0.516992,-1.341135,0.538619,2.210236,0.032607,0.0200000000000000,0.020000
2024-03-22 16:57:34.5039006,2024-03-22 16:57:34.5039303,-0.051049,0.962095,-0.517001,-1.341431,0.538113,2.209691,0.032895,0.0200000000000000,0.020000
2024-03-22 16:57:34.5048920,2024-03-22 16:57:34.5049240,-0.051044,0.962065,-0.516999,-1.341443,0.538101,2.209679,0.032895,0.0200000000000000,0.020000
2024-03-22 16:57:34.5099865,2024-03-22 16:57:34.5100121,-0.051047,0.962047,-0.517004,-1.341450,0.538086,2.209664,0.032907,0.0200000000000000,0.020000
2024-03-22 16:57:34.5191091,2024-03-22 16:57:34.5191344,-0.051042,0.962011,-0.517006,-1.341454,0.538072,2.209645,0.032915,0.0200000000000000,0.020000
2024-03-22 16:57:34.5292709,2024-03-22 16:57:34.5292927,-0.051042,0.961903,-0.517000,-1.341483,0.538017,2.209586,0.032946,0.0200000000000000,0.020000
2024-03-22 16:57:34.5394326,2024-03-22 16:57:34.5394579,-0.051041,0.961660,-0.517008,-1.341535,0.537882,2.209440,0.033005,0.0200000000000000,0.020000
2024-03-22 16:57:34.5495811,2024-03-22 16:57:34.5496065,-0.051039,0.961375,-0.517014,-1.341585,0.537709,2.209266,0.033085,0.0200000000000000,0.020000
2024-03-22 16:57:34.5830978,2024-03-22 16:57:34.5831403,-0.051037,0.961054,-0.517023,-1.341633,0.537522,2.209064,0.033168,0.0200000000000000,0.020000
2024-03-22 16:57:34.5838987,2024-03-22 16:57:34.5839236,-0.050938,0.959495,-0.517158,-1.341927,0.536619,2.208123,0.033557,0.0200000000000000,0.020000
2024-03-22 16:57:34.5848982,2024-03-22 16:57:34.5849255,-0.050935,0.959449,-0.517164,-1.341938,0.536598,2.208101,0.033564,0.0200000000000000,0.020000
2024-03-22 16:57:34.5870989,2024-03-22 16:57:34.5871318,-0.050936,0.959409,-0.517165,-1.341948,0.536576,2.208079,0.033579,0.0200000000000000,0.020000
2024-03-22 16:57:34.5993571,2024-03-22 16:57:34.5993818,-0.050933,0.959374,-0.517167,-1.341957,0.536557,2.208055,0.033585,0.0200000000000000,0.020000
2024-03-22 16:57:34.6075119,2024-03-22 16:57:34.6075343,-0.050928,0.959332,-0.517167,-1.341958,0.536534,2.208031,0.033597,0.0200000000000000,0.020000
2024-03-22 16:57:34.6197744,2024-03-22 16:57:34.6197995,-0.050927,0.958819,-0.517177,-1.342046,0.536254,2.207751,0.033724,0.0200000000000000,0.020000
2024-03-22 16:57:34.6299243,2024-03-22 16:57:34.6299481,-0.050923,0.958459,-0.517182,-1.342101,0.536051,2.207559,0.033811,0.0200000000000000,0.020000
2024-03-22 16:57:34.6400857,2024-03-22 16:57:34.6401128,-0.050917,0.957891,-0.517195,-1.342175,0.535722,2.207271,0.033946,0.0200000000000000,0.020000
2024-03-22 16:57:34.6471851,2024-03-22 16:57:34.6472084,-0.050904,0.957377,-0.517235,-1.342210,0.535410,2.206993,0.034082,0.0200000000000000,0.020000
2024-03-22 16:57:34.6594365,2024-03-22 16:57:34.6594644,-0.050897,0.956844,-0.517259,-1.342240,0.535165,2.206688,0.034201,0.0200000000000000,0.020000
2024-03-22 16:57:34.6695836,2024-03-22 16:57:34.6696158,-0.050889,0.956486,-0.517273,-1.342265,0.534962,2.206474,0.034288,0.0200000000000000,0.020000
2024-03-22 16:57:34.6797322,2024-03-22 16:57:34.6797620,-0.050863,0.955817,-0.517280,-1.342347,0.534613,2.206081,0.034444,0.0200000000000000,0.020000
2024-03-22 16:57:34.6898800,2024-03-22 16:57:34.6899072,-0.050853,0.955233,-0.517286,-1.342444,0.534273,2.205784,0.034578,0.0200000000000000,0.020000
2024-03-22 16:57:34.7231077,2024-03-22 16:57:34.7231343,-0.050844,0.954628,-0.517326,-1.342513,0.533939,2.205543,0.034722,0.0200000000000000,0.020000
2024-03-22 16:57:34.7238878,2024-03-22 16:57:34.7239171,-0.050736,0.951506,-0.517436,-1.342556,0.532672,2.204444,0.035530,0.0200000000000000,0.020000
2024-03-22 16:57:34.7248776,2024-03-22 16:57:34.7249096,-0.050731,0.951435,-0.517436,-1.342554,0.532646,2.204420,0.035552,0.0200000000000000,0.020000
2024-03-22 16:57:34.7294818,2024-03-22 16:57:34.7295095,-0.050725,0.951359,-0.517433,-1.342547,0.532618,2.204396,0.035563,0.0200000000000000,0.020000
2024-03-22 16:57:34.7396303,2024-03-22 16:57:34.7396560,-0.050719,0.951284,-0.517431,-1.342545,0.532596,2.204369,0.035587,0.0200000000000000,0.020000
2024-03-22 16:57:34.7497812,2024-03-22 16:57:34.7498176,-0.050704,0.951032,-0.517428,-1.342543,0.532517,2.204292,0.035636,0.0200000000000000,0.020000
2024-03-22 16:57:34.7599298,2024-03-22 16:57:34.7599544,-0.050628,0.950208,-0.517389,-1.342508,0.532302,2.204067,0.035821,0.0200000000000000,0.020000
2024-03-22 16:57:34.7911002,2024-03-22 16:57:34.7911317,-0.050504,0.949357,-0.517333,-1.342471,0.532018,2.203780,0.036015,0.0200000000000000,0.020000
2024-03-22 16:57:34.7918845,2024-03-22 16:57:34.7919122,-0.049891,0.945644,-0.516868,-1.342447,0.530041,2.201708,0.036957,0.0200000000000000,0.020000
2024-03-22 16:57:34.7928725,2024-03-22 16:57:34.7928979,-0.049870,0.945552,-0.516854,-1.342440,0.529982,2.201651,0.036987,0.0200000000000000,0.020000
2024-03-22 16:57:34.7994923,2024-03-22 16:57:34.7995246,-0.049855,0.945463,-0.516842,-1.342445,0.529922,2.201597,0.037004,0.0200000000000000,0.020000
2024-03-22 16:57:34.8096541,2024-03-22 16:57:34.8096825,-0.049834,0.945362,-0.516833,-1.342450,0.529866,2.201544,0.037033,0.0200000000000000,0.020000
2024-03-22 16:57:34.8198164,2024-03-22 16:57:34.8198440,-0.049752,0.944908,-0.516772,-1.342443,0.529589,2.201282,0.037158,0.0200000000000000,0.020000
2024-03-22 16:57:34.8299660,2024-03-22 16:57:34.8299998,-0.049592,0.943978,-0.516666,-1.342454,0.529061,2.200718,0.037396,0.0200000000000000,0.020000
2024-03-22 16:57:34.8631068,2024-03-22 16:57:34.8631337,-0.049447,0.943057,-0.516568,-1.342470,0.528500,2.200130,0.037645,0.0200000000000000,0.020000
2024-03-22 16:57:34.8639257,2024-03-22 16:57:34.8639555,-0.049002,0.938812,-0.516450,-1.342993,0.525797,2.197333,0.038845,0.0200000000000000,0.020000
2024-03-22 16:57:34.8649523,2024-03-22 16:57:34.8649782,-0.048995,0.938714,-0.516453,-1.343004,0.525734,2.197269,0.038876,0.0200000000000000,0.020000
2024-03-22 16:57:34.8699815,2024-03-22 16:57:34.8700092,-0.048990,0.938615,-0.516454,-1.343021,0.525672,2.197202,0.038905,0.0200000000000000,0.020000
2024-03-22 16:57:34.8791154,2024-03-22 16:57:34.8791487,-0.048981,0.938510,-0.516457,-1.343032,0.525611,2.197134,0.038936,0.0200000000000000,0.020000
2024-03-22 16:57:34.8893136,2024-03-22 16:57:34.8893371,-0.048961,0.938128,-0.516469,-1.343092,0.525368,2.196855,0.039055,0.0200000000000000,0.020000
2024-03-22 16:57:34.8994699,2024-03-22 16:57:34.8994917,-0.048935,0.937223,-0.516478,-1.343234,0.524752,2.196281,0.039309,0.0200000000000000,0.020000
2024-03-22 16:57:34.9096182,2024-03-22 16:57:34.9096418,-0.048948,0.936186,-0.516477,-1.343415,0.524067,2.195567,0.039610,0.0200000000000000,0.020000
2024-03-22 16:57:34.9431002,2024-03-22 16:57:34.9431232,-0.048957,0.935150,-0.516498,-1.343596,0.523364,2.194839,0.039925,0.0200000000000000,0.020000
2024-03-22 16:57:34.9438830,2024-03-22 16:57:34.9439156,-0.049170,0.930407,-0.516714,-1.344554,0.520071,2.191325,0.041398,0.0200000000000000,0.020000
2024-03-22 16:57:34.9448810,2024-03-22 16:57:34.9449088,-0.049176,0.930293,-0.516723,-1.344571,0.519992,2.191244,0.041435,0.0200000000000000,0.020000
2024-03-22 16:57:34.9472921,2024-03-22 16:57:34.9473165,-0.049189,0.930176,-0.516724,-1.344589,0.519915,2.191163,0.041474,0.0200000000000000,0.020000
2024-03-22 16:57:34.9595678,2024-03-22 16:57:34.9596015,-0.049190,0.930077,-0.516733,-1.344610,0.519835,2.191082,0.041513,0.0200000000000000,0.020000
2024-03-22 16:57:34.9697189,2024-03-22 16:57:34.9697485,-0.049197,0.929958,-0.516739,-1.344630,0.519757,2.190998,0.041549,0.0200000000000000,0.020000
2024-03-22 16:57:34.9798875,2024-03-22 16:57:34.9799138,-0.049301,0.928551,-0.516804,-1.344882,0.518861,2.189994,0.041977,0.0200000000000000,0.020000
2024-03-22 16:57:34.9900369,2024-03-22 16:57:34.9900702,-0.049365,0.927316,-0.516860,-1.345102,0.518075,2.189128,0.042331,0.0200000000000000,0.020000
2024-03-22 16:57:35.0231056,2024-03-22 16:57:35.0231336,-0.049451,0.926066,-0.516901,-1.345307,0.517242,2.188226,0.042723,0.0200000000000000,0.020000
2024-03-22 16:57:35.0238643,2024-03-22 16:57:35.0238979,-0.049688,0.920134,-0.517163,-1.346102,0.513307,2.183949,0.044529,0.0200000000000000,0.020000
2024-03-22 16:57:35.0248636,2024-03-22 16:57:35.0248917,-0.049692,0.919980,-0.517172,-1.346115,0.513220,2.183850,0.044570,0.0200000000000000,0.020000
2024-03-22 16:57:35.0295395,2024-03-22 16:57:35.0295794,-0.049697,0.919839,-0.517179,-1.346133,0.513131,2.183749,0.044616,0.0200000000000000,0.020000
2024-03-22 16:57:35.0397076,2024-03-22 16:57:35.0397412,-0.049696,0.919701,-0.517184,-1.346150,0.513044,2.183650,0.044653,0.0200000000000000,0.020000
2024-03-22 16:57:35.0498814,2024-03-22 16:57:35.0499118,-0.049711,0.919264,-0.517196,-1.346198,0.512768,2.183321,0.044786,0.0200000000000000,0.020000
2024-03-22 16:57:35.0600302,2024-03-22 16:57:35.0600602,-0.049747,0.917790,-0.517206,-1.346327,0.511830,2.182292,0.045233,0.0200000000000000,0.020000
2024-03-22 16:57:35.0670973,2024-03-22 16:57:35.0671308,-0.049767,0.916138,-0.517229,-1.346464,0.510787,2.181134,0.045723,0.0200000000000000,0.020000
2024-03-22 16:57:35.0793626,2024-03-22 16:57:35.0793916,-0.049771,0.914738,-0.517229,-1.346579,0.509883,2.180166,0.046122,0.0200000000000000,0.020000
2024-03-22 16:57:35.0895220,2024-03-22 16:57:35.0895549,-0.049767,0.913498,-0.517229,-1.346679,0.509056,2.179260,0.046501,0.0200000000000000,0.020000
2024-03-22 16:57:35.0997189,2024-03-22 16:57:35.0997666,-0.049754,0.911644,-0.517235,-1.346796,0.507807,2.177925,0.047053,0.0200000000000000,0.020000
2024-03-22 16:57:35.1098936,2024-03-22 16:57:35.1099509,-0.049742,0.910084,-0.517225,-1.346917,0.506747,2.176775,0.047563,0.0200000000000000,0.020000
2024-03-22 16:57:35.1431372,2024-03-22 16:57:35.1431671,-0.049720,0.908516,-0.517214,-1.347032,0.505685,2.175598,0.048073,0.0200000000000000,0.020000
2024-03-22 16:57:35.1438410,2024-03-22 16:57:35.1438853,-0.049693,0.901519,-0.517179,-1.347531,0.500747,2.170005,0.050389,0.0200000000000000,0.020000
2024-03-22 16:57:35.1448541,2024-03-22 16:57:35.1448887,-0.049694,0.901357,-0.517176,-1.347536,0.500638,2.169866,0.050436,0.0200000000000000,0.020000
2024-03-22 16:57:35.1494276,2024-03-22 16:57:35.1494537,-0.049689,0.901184,-0.517178,-1.347549,0.500527,2.169725,0.050500,0.0200000000000000,0.020000
2024-03-22 16:57:35.1595696,2024-03-22 16:57:35.1595983,-0.049694,0.901017,-0.517178,-1.347558,0.500413,2.169590,0.050550,0.0200000000000000,0.020000
2024-03-22 16:57:35.1697442,2024-03-22 16:57:35.1698022,-0.049697,0.900505,-0.517173,-1.347599,0.500055,2.169219,0.050710,0.0200000000000000,0.020000
2024-03-22 16:57:35.1798662,2024-03-22 16:57:35.1799033,-0.049713,0.898828,-0.517180,-1.347685,0.498941,2.167897,0.051263,0.0200000000000000,0.020000
2024-03-22 16:57:35.2111117,2024-03-22 16:57:35.2111449,-0.049744,0.897104,-0.517184,-1.347778,0.497853,2.166534,0.051830,0.0200000000000000,0.020000
2024-03-22 16:57:35.2119067,2024-03-22 16:57:35.2119453,-0.050016,0.889483,-0.517204,-1.347951,0.492713,2.160473,0.054265,0.0200000000000000,0.020000
2024-03-22 16:57:35.2128710,2024-03-22 16:57:35.2129003,-0.050021,0.889300,-0.517204,-1.347943,0.492579,2.160330,0.054323,0.0200000000000000,0.020000
2024-03-22 16:57:35.2193248,2024-03-22 16:57:35.2193555,-0.050035,0.889114,-0.517209,-1.347945,0.492451,2.160177,0.054383,0.0200000000000000,0.020000
2024-03-22 16:57:35.2294755,2024-03-22 16:57:35.2295023,-0.050041,0.888913,-0.517207,-1.347950,0.492333,2.160020,0.054445,0.0200000000000000,0.020000
2024-03-22 16:57:35.2396322,2024-03-22 16:57:35.2396590,-0.050084,0.887963,-0.517209,-1.347945,0.491748,2.159281,0.054752,0.0200000000000000,0.020000
2024-03-22 16:57:35.2497655,2024-03-22 16:57:35.2499323,-0.050167,0.886077,-0.517224,-1.347942,0.490486,2.157767,0.055387,0.0200000000000000,0.020000
2024-03-22 16:57:35.2831074,2024-03-22 16:57:35.2831400,-0.050257,0.884191,-0.517253,-1.347941,0.489157,2.156219,0.055989,0.0200000000000000,0.020000
2024-03-22 16:57:35.2846411,2024-03-22 16:57:35.2846830,-0.050648,0.875883,-0.517415,-1.347896,0.483333,2.148948,0.058912,0.0200000000000000,0.020000
2024-03-22 16:57:35.2846716,2024-03-22 16:57:35.2846995,-0.050648,0.875883,-0.517415,-1.347896,0.483333,2.148948,0.058912,0.0200000000000000,0.020000
2024-03-22 16:57:35.2892057,2024-03-22 16:57:35.2892352,-0.050663,0.875699,-0.517418,-1.347895,0.483192,2.148760,0.058983,0.0200000000000000,0.020000
2024-03-22 16:57:35.2993603,2024-03-22 16:57:35.2993951,-0.050672,0.875496,-0.517416,-1.347892,0.483048,2.148593,0.059048,0.0200000000000000,0.020000
2024-03-22 16:57:35.3095086,2024-03-22 16:57:35.3095408,-0.050715,0.874711,-0.517424,-1.347888,0.482476,2.147945,0.059312,0.0200000000000000,0.020000
2024-03-22 16:57:35.3196538,2024-03-22 16:57:35.3197050,-0.050826,0.872772,-0.517438,-1.347806,0.481065,2.146181,0.059971,0.0200000000000000,0.020000
2024-03-22 16:57:35.3511316,2024-03-22 16:57:35.3511629,-0.050928,0.870803,-0.517452,-1.347711,0.479709,2.144466,0.060638,0.0200000000000000,0.020000
2024-03-22 16:57:35.3518273,2024-03-22 16:57:35.3518623,-0.051329,0.862177,-0.517509,-1.347117,0.473912,2.136710,0.063656,0.0200000000000000,0.020000
2024-03-22 16:57:35.3528524,2024-03-22 16:57:35.3528888,-0.051334,0.861969,-0.517505,-1.347100,0.473776,2.136513,0.063734,0.0200000000000000,0.020000
2024-03-22 16:57:35.3591387,2024-03-22 16:57:35.3591664,-0.051348,0.861751,-0.517517,-1.347074,0.473640,2.136320,0.063803,0.0200000000000000,0.020000
2024-03-22 16:57:35.3692725,2024-03-22 16:57:35.3693007,-0.051356,0.861545,-0.517512,-1.347051,0.473502,2.136132,0.063875,0.0200000000000000,0.020000
2024-03-22 16:57:35.3794194,2024-03-22 16:57:35.3794552,-0.051404,0.860509,-0.517512,-1.346940,0.472796,2.135194,0.064221,0.0200000000000000,0.020000
2024-03-22 16:57:35.3895383,2024-03-22 16:57:35.3895751,-0.051495,0.858434,-0.517512,-1.346674,0.471394,2.133278,0.064946,0.0200000000000000,0.020000
2024-03-22 16:57:35.4230684,2024-03-22 16:57:35.4230949,-0.051594,0.856379,-0.517510,-1.346417,0.469919,2.131292,0.065664,0.0200000000000000,0.020000
2024-03-22 16:57:35.4238555,2024-03-22 16:57:35.4238986,-0.052069,0.847375,-0.517500,-1.345091,0.463309,2.122308,0.069021,0.0200000000000000,0.020000
2024-03-22 16:57:35.4248399,2024-03-22 16:57:35.4248700,-0.052082,0.847161,-0.517502,-1.345056,0.463146,2.122095,0.069101,0.0200000000000000,0.020000
2024-03-22 16:57:35.4300734,2024-03-22 16:57:35.4301003,-0.052097,0.846940,-0.517500,-1.345016,0.462987,2.121875,0.069178,0.0200000000000000,0.020000
2024-03-22 16:57:35.4391446,2024-03-22 16:57:35.4391754,-0.052114,0.846746,-0.517505,-1.344986,0.462836,2.121657,0.069254,0.0200000000000000,0.020000
2024-03-22 16:57:35.4492773,2024-03-22 16:57:35.4493079,-0.052156,0.845915,-0.517505,-1.344834,0.462220,2.120834,0.069568,0.0200000000000000,0.020000
2024-03-22 16:57:35.4593987,2024-03-22 16:57:35.4612913,-0.052274,0.844006,-0.517510,-1.344476,0.460857,2.118886,0.070286,0.0200000000000000,0.020000
2024-03-22 16:57:35.4695129,2024-03-22 16:57:35.4695362,-0.052396,0.841885,-0.517505,-1.344036,0.459384,2.116737,0.071073,0.0200000000000000,0.020000
2024-03-22 16:57:35.5030640,2024-03-22 16:57:35.5030849,-0.052532,0.839714,-0.517510,-1.343569,0.457948,2.114578,0.071857,0.0200000000000000,0.020000
2024-03-22 16:57:35.5038181,2024-03-22 16:57:35.5038441,-0.053165,0.830178,-0.517513,-1.341034,0.451318,2.104649,0.075345,0.0200000000000000,0.020000
2024-03-22 16:57:35.5048128,2024-03-22 16:57:35.5048322,-0.053181,0.829975,-0.517523,-1.340978,0.451158,2.104412,0.075428,0.0200000000000000,0.020000
2024-03-22 16:57:35.5100243,2024-03-22 16:57:35.5100449,-0.053199,0.829762,-0.517516,-1.340907,0.450997,2.104185,0.075503,0.0200000000000000,0.020000
2024-03-22 16:57:35.5190669,2024-03-22 16:57:35.5190891,-0.053219,0.829549,-0.517523,-1.340848,0.450830,2.103950,0.075587,0.0200000000000000,0.020000
2024-03-22 16:57:35.5291951,2024-03-22 16:57:35.5292233,-0.053278,0.828711,-0.517523,-1.340599,0.450218,2.102992,0.075930,0.0200000000000000,0.020000
2024-03-22 16:57:35.5393225,2024-03-22 16:57:35.5393497,-0.053430,0.826801,-0.517515,-1.340031,0.448797,2.100839,0.076662,0.0200000000000000,0.020000
2024-03-22 16:57:35.5494313,2024-03-22 16:57:35.5494575,-0.053603,0.824713,-0.517505,-1.339357,0.447198,2.098463,0.077506,0.0200000000000000,0.020000
2024-03-22 16:57:35.5830639,2024-03-22 16:57:35.5830930,-0.053789,0.822591,-0.517496,-1.338693,0.445675,2.096083,0.078300,0.0200000000000000,0.020000
2024-03-22 16:57:35.5837911,2024-03-22 16:57:35.5838155,-0.054701,0.813217,-0.517511,-1.335336,0.439055,2.085180,0.081924,0.0200000000000000,0.020000
2024-03-22 16:57:35.5848190,2024-03-22 16:57:35.5848436,-0.054726,0.813000,-0.517511,-1.335251,0.438901,2.084918,0.082007,0.0200000000000000,0.020000
2024-03-22 16:57:35.5899280,2024-03-22 16:57:35.5899443,-0.054748,0.812792,-0.517513,-1.335161,0.438746,2.084667,0.082100,0.0200000000000000,0.020000
2024-03-22 16:57:35.6000569,2024-03-22 16:57:35.6000937,-0.054771,0.812573,-0.517513,-1.335084,0.438582,2.084422,0.082185,0.0200000000000000,0.020000
2024-03-22 16:57:35.6071181,2024-03-22 16:57:35.6071351,-0.054865,0.811716,-0.517516,-1.334730,0.437977,2.083393,0.082516,0.0200000000000000,0.020000
2024-03-22 16:57:35.6194789,2024-03-22 16:57:35.6195087,-0.055089,0.809546,-0.517513,-1.333834,0.436423,2.080818,0.083350,0.0200000000000000,0.020000
2024-03-22 16:57:35.6295921,2024-03-22 16:57:35.6296199,-0.055248,0.808054,-0.517513,-1.333200,0.435329,2.079013,0.083938,0.0200000000000000,0.020000
2024-03-22 16:57:35.6397154,2024-03-22 16:57:35.6397410,-0.055545,0.805550,-0.517515,-1.332040,0.433524,2.075928,0.084954,0.0200000000000000,0.020000
2024-03-22 16:57:35.6498339,2024-03-22 16:57:35.6498599,-0.055796,0.803480,-0.517520,-1.331069,0.432061,2.073296,0.085782,0.0200000000000000,0.020000
2024-03-22 16:57:35.6830675,2024-03-22 16:57:35.6830937,-0.056047,0.801471,-0.517520,-1.330088,0.430524,2.070605,0.086614,0.0200000000000000,0.020000
2024-03-22 16:57:35.6838379,2024-03-22 16:57:35.6838655,-0.057232,0.792639,-0.517460,-1.325385,0.423858,2.058558,0.090324,0.0200000000000000,0.020000
2024-03-22 16:57:35.6848888,2024-03-22 16:57:35.6849091,-0.057268,0.792443,-0.517459,-1.325274,0.423698,2.058281,0.090414,0.0200000000000000,0.020000
2024-03-22 16:57:35.6892792,2024-03-22 16:57:35.6892997,-0.057296,0.792225,-0.517456,-1.325162,0.423545,2.057999,0.090500,0.0200000000000000,0.020000
2024-03-22 16:57:35.6994133,2024-03-22 16:57:35.6994356,-0.057320,0.792021,-0.517459,-1.325057,0.423391,2.057727,0.090589,0.0200000000000000,0.020000
2024-03-22 16:57:35.7096022,2024-03-22 16:57:35.7096345,-0.057406,0.791423,-0.517460,-1.324712,0.422936,2.056894,0.090856,0.0200000000000000,0.020000
2024-03-22 16:57:35.7197372,2024-03-22 16:57:35.7197647,-0.057688,0.789415,-0.517456,-1.323511,0.421422,2.054107,0.091699,0.0200000000000000,0.020000
2024-03-22 16:57:35.7510655,2024-03-22 16:57:35.7510943,-0.057978,0.787388,-0.517453,-1.322248,0.419978,2.051321,0.092551,0.0200000000000000,0.020000
2024-03-22 16:57:35.7518117,2024-03-22 16:57:35.7518369,-0.059218,0.778992,-0.517409,-1.316486,0.413956,2.039327,0.096070,0.0200000000000000,0.020000
2024-03-22 16:57:35.7528123,2024-03-22 16:57:35.7528327,-0.059244,0.778793,-0.517404,-1.316341,0.413813,2.039047,0.096151,0.0200000000000000,0.020000
2024-03-22 16:57:35.7592947,2024-03-22 16:57:35.7593163,-0.059274,0.778602,-0.517411,-1.316201,0.413674,2.038762,0.096244,0.0200000000000000,0.020000
2024-03-22 16:57:35.7694181,2024-03-22 16:57:35.7694438,-0.059305,0.778412,-0.517411,-1.316058,0.413540,2.038469,0.096325,0.0200000000000000,0.020000
2024-03-22 16:57:35.7795366,2024-03-22 16:57:35.7795636,-0.059459,0.777466,-0.517403,-1.315325,0.412836,2.037019,0.096759,0.0200000000000000,0.020000
2024-03-22 16:57:35.7896474,2024-03-22 16:57:35.7896701,-0.059772,0.775579,-0.517390,-1.313856,0.411413,2.034128,0.097592,0.0200000000000000,0.020000
2024-03-22 16:57:35.8230614,2024-03-22 16:57:35.8230902,-0.060094,0.773724,-0.517368,-1.312383,0.410011,2.031206,0.098467,0.0200000000000000,0.020000
2024-03-22 16:57:35.8238849,2024-03-22 16:57:35.8239088,-0.061575,0.765777,-0.517242,-1.305576,0.403990,2.018008,0.102000,0.0200000000000000,0.020000
2024-03-22 16:57:35.8248310,2024-03-22 16:57:35.8248514,-0.061615,0.765598,-0.517248,-1.305425,0.403860,2.017705,0.102087,0.0200000000000000,0.020000
2024-03-22 16:57:35.8270595,2024-03-22 16:57:35.8270769,-0.061647,0.765435,-0.517240,-1.305258,0.403727,2.017397,0.102167,0.0200000000000000,0.020000
2024-03-22 16:57:35.8392823,2024-03-22 16:57:35.8393026,-0.061679,0.765247,-0.517242,-1.305092,0.403590,2.017101,0.102243,0.0200000000000000,0.020000
2024-03-22 16:57:35.8494051,2024-03-22 16:57:35.8494307,-0.061714,0.765074,-0.517244,-1.304923,0.403457,2.016806,0.102328,0.0200000000000000,0.020000
2024-03-22 16:57:35.8595245,2024-03-22 16:57:35.8595494,-0.062143,0.762971,-0.517235,-1.302958,0.401808,2.013137,0.103283,0.0200000000000000,0.020000
2024-03-22 16:57:35.8696356,2024-03-22 16:57:35.8696602,-0.062503,0.761229,-0.517232,-1.301299,0.400527,2.010109,0.104081,0.0200000000000000,0.020000
2024-03-22 16:57:35.9030586,2024-03-22 16:57:35.9030840,-0.062862,0.759505,-0.517222,-1.299593,0.399279,2.007080,0.104876,0.0200000000000000,0.020000
2024-03-22 16:57:35.9038013,2024-03-22 16:57:35.9038375,-0.064509,0.752196,-0.517160,-1.291534,0.393814,1.993565,0.108365,0.0200000000000000,0.020000
2024-03-22 16:57:35.9047966,2024-03-22 16:57:35.9048185,-0.064550,0.752043,-0.517162,-1.291346,0.393701,1.993251,0.108442,0.0200000000000000,0.020000
2024-03-22 16:57:35.9070547,2024-03-22 16:57:35.9070700,-0.064583,0.751882,-0.517157,-1.291153,0.393580,1.992933,0.108520,0.0200000000000000,0.020000
2024-03-22 16:57:35.9192816,2024-03-22 16:57:35.9193057,-0.064623,0.751715,-0.517156,-1.290969,0.393456,1.992627,0.108589,0.0200000000000000,0.020000
2024-03-22 16:57:35.9293953,2024-03-22 16:57:35.9294141,-0.064664,0.751564,-0.517154,-1.290775,0.393329,1.992325,0.108671,0.0200000000000000,0.020000
2024-03-22 16:57:35.9395187,2024-03-22 16:57:35.9395434,-0.065129,0.749699,-0.517131,-1.288432,0.391860,1.988593,0.109609,0.0200000000000000,0.020000
2024-03-22 16:57:35.9496356,2024-03-22 16:57:35.9496641,-0.065527,0.748174,-0.517073,-1.286475,0.390602,1.985454,0.110394,0.0200000000000000,0.020000
2024-03-22 16:57:35.9830646,2024-03-22 16:57:35.9830923,-0.065924,0.746672,-0.517039,-1.284498,0.389388,1.982301,0.111133,0.0200000000000000,0.020000
2024-03-22 16:57:35.9837932,2024-03-22 16:57:35.9838211,-0.067776,0.740411,-0.516946,-1.275626,0.384428,1.968480,0.114379,0.0200000000000000,0.020000
2024-03-22 16:57:35.9848028,2024-03-22 16:57:35.9848244,-0.067820,0.740280,-0.516946,-1.275415,0.384316,1.968163,0.114454,0.0200000000000000,0.020000
2024-03-22 16:57:35.9891777,2024-03-22 16:57:35.9891987,-0.067860,0.740143,-0.516942,-1.275214,0.384202,1.967849,0.114529,0.0200000000000000,0.020000
2024-03-22 16:57:35.9992993,2024-03-22 16:57:35.9993201,-0.067912,0.740009,-0.516937,-1.275005,0.384091,1.967538,0.114605,0.0200000000000000,0.020000
2024-03-22 16:57:36.0094197,2024-03-22 16:57:36.0094439,-0.068038,0.739587,-0.516931,-1.274391,0.383755,1.966603,0.114826,0.0200000000000000,0.020000
2024-03-22 16:57:36.0195308,2024-03-22 16:57:36.0195548,-0.068474,0.738255,-0.516925,-1.272283,0.382683,1.963454,0.115571,0.0200000000000000,0.020000
2024-03-22 16:57:36.0510648,2024-03-22 16:57:36.0510944,-0.068921,0.736917,-0.516889,-1.270132,0.381629,1.960309,0.116315,0.0200000000000000,0.020000
2024-03-22 16:57:36.0517963,2024-03-22 16:57:36.0518199,-0.070798,0.731434,-0.516826,-1.260653,0.377466,1.947191,0.119224,0.0200000000000000,0.020000
2024-03-22 16:57:36.0527903,2024-03-22 16:57:36.0529326,-0.070843,0.731306,-0.516823,-1.260426,0.377359,1.946877,0.119287,0.0200000000000000,0.020000
2024-03-22 16:57:36.0600635,2024-03-22 16:57:36.0600831,-0.070890,0.731173,-0.516826,-1.260195,0.377255,1.946550,0.119354,0.0200000000000000,0.020000
2024-03-22 16:57:36.0671411,2024-03-22 16:57:36.0671736,-0.070933,0.731057,-0.516831,-1.259965,0.377155,1.946225,0.119416,0.0200000000000000,0.020000
2024-03-22 16:57:36.0793574,2024-03-22 16:57:36.0793820,-0.071207,0.730288,-0.516820,-1.258595,0.376583,1.944330,0.119799,0.0200000000000000,0.020000
2024-03-22 16:57:36.0894875,2024-03-22 16:57:36.0895191,-0.071521,0.729437,-0.516814,-1.256985,0.375910,1.942121,0.120274,0.0200000000000000,0.020000
2024-03-22 16:57:36.0996040,2024-03-22 16:57:36.0996327,-0.072079,0.728035,-0.516814,-1.254235,0.374827,1.938376,0.121057,0.0200000000000000,0.020000
2024-03-22 16:57:36.1097111,2024-03-22 16:57:36.1097305,-0.072548,0.726911,-0.516817,-1.251915,0.373954,1.935224,0.121702,0.0200000000000000,0.020000
2024-03-22 16:57:36.1430596,2024-03-22 16:57:36.1430845,-0.073028,0.725847,-0.516795,-1.249622,0.373060,1.932172,0.122362,0.0200000000000000,0.020000
2024-03-22 16:57:36.1438075,2024-03-22 16:57:36.1438272,-0.075163,0.721508,-0.516705,-1.239297,0.369221,1.918555,0.125143,0.0200000000000000,0.020000
2024-03-22 16:57:36.1447899,2024-03-22 16:57:36.1448128,-0.075216,0.721415,-0.516701,-1.239054,0.369144,1.918253,0.125207,0.0200000000000000,0.020000
2024-03-22 16:57:36.1471389,2024-03-22 16:57:36.1471584,-0.075261,0.721320,-0.516695,-1.238821,0.369065,1.917949,0.125265,0.0200000000000000,0.020000
2024-03-22 16:57:36.1593641,2024-03-22 16:57:36.1593873,-0.075312,0.721233,-0.516692,-1.238585,0.368984,1.917655,0.125327,0.0200000000000000,0.020000
2024-03-22 16:57:36.1695234,2024-03-22 16:57:36.1695619,-0.075364,0.721128,-0.516697,-1.238337,0.368903,1.917352,0.125381,0.0200000000000000,0.020000
2024-03-22 16:57:36.1796776,2024-03-22 16:57:36.1797025,-0.075939,0.720028,-0.516688,-1.235401,0.367999,1.913647,0.126121,0.0200000000000000,0.020000
2024-03-22 16:57:36.1898213,2024-03-22 16:57:36.1898440,-0.076415,0.719147,-0.516686,-1.232973,0.367230,1.910592,0.126744,0.0200000000000000,0.020000
2024-03-22 16:57:36.2231024,2024-03-22 16:57:36.2231307,-0.076894,0.718280,-0.516671,-1.230556,0.366495,1.907563,0.127362,0.0200000000000000,0.020000
2024-03-22 16:57:36.2238437,2024-03-22 16:57:36.2238710,-0.079049,0.714827,-0.516585,-1.219872,0.363359,1.894315,0.129890,0.0200000000000000,0.020000
2024-03-22 16:57:36.2248971,2024-03-22 16:57:36.2249200,-0.079096,0.714765,-0.516582,-1.219633,0.363294,1.894026,0.129947,0.0200000000000000,0.020000
2024-03-22 16:57:36.2293045,2024-03-22 16:57:36.2293244,-0.079153,0.714694,-0.516575,-1.219382,0.363229,1.893726,0.130008,0.0200000000000000,0.020000
2024-03-22 16:57:36.2394563,2024-03-22 16:57:36.2394780,-0.079195,0.714611,-0.516579,-1.219142,0.363163,1.893433,0.130061,0.0200000000000000,0.020000
2024-03-22 16:57:36.2496129,2024-03-22 16:57:36.2496361,-0.079338,0.714402,-0.516579,-1.218406,0.362967,1.892574,0.130220,0.0200000000000000,0.020000
2024-03-22 16:57:36.2597530,2024-03-22 16:57:36.2597773,-0.079827,0.713686,-0.516563,-1.215927,0.362328,1.889629,0.130758,0.0200000000000000,0.020000
2024-03-22 16:57:36.2910994,2024-03-22 16:57:36.2911250,-0.080322,0.712975,-0.516542,-1.213441,0.361756,1.886723,0.131309,0.0200000000000000,0.020000
2024-03-22 16:57:36.2940658,2024-03-22 16:57:36.2940913,-0.082308,0.710233,-0.516493,-1.203208,0.359356,1.874982,0.133377,0.0200000000000000,0.020000
2024-03-22 16:57:36.2941045,2024-03-22 16:57:36.2941279,-0.082452,0.710044,-0.516482,-1.202473,0.359189,1.874138,0.133549,0.0200000000000000,0.020000
2024-03-22 16:57:36.2993615,2024-03-22 16:57:36.2993818,-0.082499,0.709989,-0.516487,-1.202228,0.359133,1.873854,0.133595,0.0200000000000000,0.020000
2024-03-22 16:57:36.3095065,2024-03-22 16:57:36.3095295,-0.082548,0.709935,-0.516484,-1.201981,0.359074,1.873583,0.133652,0.0200000000000000,0.020000
